;FLAVOR:Marlin
;TIME:1193
;Filament used: 0.64019m
;Layer height: 0.2
;MINX:98.675
;MINY:81.595
;MINZ:0.2
;MAXX:136.309
;MAXY:153.39
;MAXZ:10.6
;Generated with Cura_SteamEngine 4.13.0
M140 S60
M105
M190 S60
M104 S210
M105
M109 S210
M82 ;absolute extrusion mode
; Ender 3 Custom Start G-code
G92 E0 ; Reset Extruder
G28 ; Home all axes
G1 Z2.0 F3000 ; Move Z Axis up little to prevent scratching of Heat Bed
G1 X0.1 Y20 Z0.3 F5000.0 ; Move to start position
G1 X0.1 Y200.0 Z0.3 F1500.0 E15 ; Draw the first line
G1 X0.4 Y200.0 Z0.3 F5000.0 ; Move to side a little
G1 X0.4 Y20 Z0.3 F1500.0 E30 ; Draw the second line
G92 E0 ; Reset Extruder
G1 Z2.0 F3000 ; Move Z Axis up little to prevent scratching of Heat Bed
G1 X5 Y20 Z0.3 F5000.0 ; Move over to prevent blob squish
G92 E0
G92 E0
G1 F2700 E-5
;LAYER_COUNT:53
;LAYER:0
M107
G0 F6000 X104.234 Y85.531 Z0.2
;TYPE:SKIRT
G1 F2700 E0
G1 F1200 X104.867 Y84.839 E0.03119
G1 X105.557 Y84.204 E0.06238
G1 X106.298 Y83.63 E0.09356
G1 X107.086 Y83.121 E0.12476
G1 X107.914 Y82.68 E0.15596
G1 X108.777 Y82.312 E0.18716
G1 X109.668 Y82.019 E0.21836
G1 X110.58 Y81.803 E0.24953
G1 X111.508 Y81.665 E0.28074
G1 X112.375 Y81.609 E0.30963
G1 X112.763 Y81.599 E0.32254
G1 X113.049 Y81.595 E0.33206
G1 X121.108 Y81.598 E0.6001
G1 X121.778 Y81.608 E0.62239
G1 X122.714 Y81.662 E0.65357
G1 X123.643 Y81.796 E0.68479
G1 X124.556 Y82.008 E0.71596
G1 X125.449 Y82.297 E0.74718
G1 X126.313 Y82.661 E0.77836
G1 X127.143 Y83.098 E0.80956
G1 X127.933 Y83.603 E0.84075
G1 X128.677 Y84.174 E0.87194
G1 X129.37 Y84.806 E0.90314
G1 X130.006 Y85.495 E0.93432
G1 X130.581 Y86.236 E0.96552
G1 X131.091 Y87.023 E0.99671
G1 X131.533 Y87.851 E1.02793
G1 X131.902 Y88.713 E1.05911
G1 X132.196 Y89.603 E1.09029
G1 X132.413 Y90.516 E1.1215
G1 X132.552 Y91.443 E1.15268
G1 X132.608 Y92.256 E1.17978
G1 X132.618 Y92.569 E1.1902
G1 X132.624 Y92.918 E1.20181
G1 X132.626 Y106.587 E1.65644
G1 X132.663 Y109.188 E1.74296
G1 X132.771 Y111.722 E1.82732
G1 X132.947 Y114.2 E1.90994
G1 X133.198 Y116.72 E1.99417
G1 X133.516 Y119.205 E2.0775
G1 X133.907 Y121.698 E2.16143
G1 X134.371 Y124.191 E2.24577
G1 X134.895 Y126.621 E2.32845
G1 X135.597 Y129.463 E2.42582
G1 X135.754 Y130.21 E2.45121
G1 X135.932 Y131.239 E2.48594
G1 X136.096 Y132.278 E2.52092
G1 X136.199 Y132.988 E2.54479
G1 X136.294 Y133.921 E2.57598
G1 X136.309 Y134.859 E2.60718
G1 X136.203 Y136.119 E2.64924
G1 X136.095 Y136.877 E2.6747
G1 X135.911 Y138.044 E2.714
G1 X135.883 Y138.216 E2.71979
G1 X135.768 Y138.874 E2.74201
G1 X135.567 Y139.79 E2.7732
G1 X135.289 Y140.686 E2.8044
G1 X134.814 Y141.813 E2.84508
G1 X134.376 Y142.705 E2.87813
G1 X133.952 Y143.537 E2.90919
G1 X133.556 Y144.289 E2.93746
G1 X133.085 Y145.1 E2.96865
G1 X132.545 Y145.867 E2.99985
G1 X131.713 Y146.83 E3.04218
G1 X131.061 Y147.499 E3.07325
G1 X130.29 Y148.27 E3.10951
G1 X129.767 Y148.779 E3.13379
G1 X129.068 Y149.404 E3.16497
G1 X128.317 Y149.967 E3.19619
G1 X127.243 Y150.617 E3.23795
G1 X126.428 Y151.047 E3.26859
G1 X125.386 Y151.577 E3.30748
G1 X124.784 Y151.874 E3.3298
G1 X123.926 Y152.252 E3.36099
G1 X123.039 Y152.557 E3.39218
G1 X121.797 Y152.847 E3.4346
G1 X120.877 Y153.006 E3.46566
G1 X119.93 Y153.156 E3.49755
G1 X119.085 Y153.279 E3.52595
G1 X118.152 Y153.375 E3.55714
G1 X117.214 Y153.39 E3.58835
G1 X115.947 Y153.284 E3.63063
G1 X115.162 Y153.172 E3.65701
G1 X113.916 Y152.974 E3.69897
G1 X113.218 Y152.854 E3.72253
G1 X112.302 Y152.656 E3.7537
G1 X111.405 Y152.38 E3.78491
G1 X110.236 Y151.888 E3.82709
G1 X109.395 Y151.474 E3.85827
G1 X108.374 Y150.953 E3.8964
G1 X107.776 Y150.638 E3.91888
G1 X106.966 Y150.166 E3.95006
G1 X106.199 Y149.627 E3.98124
G1 X105.236 Y148.794 E4.02359
G1 X104.513 Y148.089 E4.05717
G1 X103.776 Y147.35 E4.09189
G1 X103.284 Y146.844 E4.11536
G1 X102.66 Y146.145 E4.14653
G1 X102.097 Y145.394 E4.17774
G1 X101.45 Y144.324 E4.21933
G1 X101.011 Y143.492 E4.25062
G1 X100.515 Y142.521 E4.28689
G1 X100.191 Y141.864 E4.31125
G1 X99.813 Y141.006 E4.34243
G1 X99.509 Y140.119 E4.37362
G1 X99.219 Y138.881 E4.41591
G1 X99.078 Y138.069 E4.44332
G1 X98.904 Y136.975 E4.48017
G1 X98.784 Y136.149 E4.50793
G1 X98.689 Y135.216 E4.53912
G1 X98.675 Y134.278 E4.57032
G1 X98.782 Y133.024 E4.61218
G1 X98.914 Y132.107 E4.64299
G1 X99.098 Y130.946 E4.68209
G1 X99.212 Y130.288 E4.7043
G1 X99.302 Y129.831 E4.71979
G1 X99.878 Y127.179 E4.81006
G1 X100.345 Y124.691 E4.89425
G1 X100.737 Y122.22 E4.97747
G1 X101.062 Y119.713 E5.06155
G1 X101.316 Y117.199 E5.14559
G1 X101.497 Y114.703 E5.22883
G1 X101.607 Y112.206 E5.31196
G1 X101.649 Y109.41 E5.40496
G1 X101.648 Y93.106 E5.94724
G1 X101.659 Y92.427 E5.96982
G1 X101.715 Y91.491 E6.00101
G1 X101.849 Y90.562 E6.03223
G1 X102.063 Y89.649 E6.06342
G1 X102.353 Y88.757 E6.09461
G1 X102.718 Y87.893 E6.12581
G1 X103.156 Y87.064 E6.15699
G1 X103.662 Y86.275 E6.18817
G1 X104.234 Y85.531 E6.21938
G0 F6000 X104.628 Y85.686
G1 F1200 X105.259 Y85.015 E6.25002
G1 X105.945 Y84.401 E6.28064
G1 X106.682 Y83.85 E6.31125
G1 X107.465 Y83.364 E6.3419
G1 X108.286 Y82.949 E6.37249
G1 X109.14 Y82.606 E6.4031
G1 X110.021 Y82.338 E6.43373
G1 X110.922 Y82.148 E6.46436
G1 X111.836 Y82.037 E6.49498
G1 X112.385 Y82.009 E6.51326
G1 X112.773 Y81.999 E6.52617
G1 X113.049 Y81.995 E6.53535
G1 X121.102 Y81.998 E6.8032
G1 X121.772 Y82.008 E6.82548
G1 X122.691 Y82.062 E6.8561
G1 X123.602 Y82.195 E6.88672
G1 X124.498 Y82.407 E6.91735
G1 X125.372 Y82.696 E6.94797
G1 X126.218 Y83.059 E6.97858
G1 X127.029 Y83.495 E7.00921
G1 X127.8 Y83.999 E7.03985
G1 X128.523 Y84.568 E7.07045
G1 X129.195 Y85.198 E7.10108
G1 X129.809 Y85.884 E7.1317
G1 X130.361 Y86.62 E7.1623
G1 X130.848 Y87.402 E7.19295
G1 X131.265 Y88.223 E7.22357
G1 X131.609 Y89.077 E7.25419
G1 X131.877 Y89.957 E7.28479
G1 X132.069 Y90.858 E7.31543
G1 X132.181 Y91.772 E7.34606
G1 X132.209 Y92.269 E7.36261
G1 X132.219 Y92.582 E7.37303
G1 X132.224 Y92.918 E7.38421
G1 X132.226 Y106.593 E7.83904
G1 X132.263 Y109.212 E7.92616
G1 X132.371 Y111.729 E8.00995
G1 X132.548 Y114.231 E8.09337
G1 X132.801 Y116.774 E8.17837
G1 X133.118 Y119.251 E8.26143
G1 X133.519 Y121.803 E8.34735
G1 X133.972 Y124.237 E8.4297
G1 X134.51 Y126.736 E8.51472
G1 X135.208 Y129.559 E8.61144
G1 X135.36 Y130.279 E8.63591
G1 X135.537 Y131.302 E8.67044
G1 X135.7 Y132.335 E8.70523
G1 X135.803 Y133.045 E8.72909
G1 X135.896 Y133.961 E8.75971
G1 X135.908 Y134.882 E8.79035
G1 X135.807 Y136.062 E8.82974
G1 X135.674 Y136.984 E8.86072
G1 X135.489 Y138.147 E8.89989
G1 X135.374 Y138.805 E8.9221
G1 X135.176 Y139.704 E8.95272
G1 X134.901 Y140.583 E8.98336
G1 X134.454 Y141.637 E9.02143
G1 X134.019 Y142.523 E9.05426
G1 X133.53 Y143.48 E9.09001
G1 X133.202 Y144.103 E9.11342
G1 X132.739 Y144.898 E9.14402
G1 X132.207 Y145.65 E9.17466
G1 X131.426 Y146.551 E9.21432
G1 X130.778 Y147.217 E9.24523
G1 X130.011 Y147.983 E9.28128
G1 X129.488 Y148.492 E9.30555
G1 X128.801 Y149.105 E9.33618
G1 X128.063 Y149.656 E9.36681
G1 X127.056 Y150.263 E9.40592
G1 X126.246 Y150.691 E9.43639
G1 X125.209 Y151.218 E9.47508
G1 X124.607 Y151.515 E9.4974
G1 X123.764 Y151.886 E9.52804
G1 X122.893 Y152.183 E9.55864
G1 X121.729 Y152.453 E9.59839
G1 X120.814 Y152.61 E9.62926
G1 X119.735 Y152.781 E9.6656
G1 X119.027 Y152.884 E9.6894
G1 X118.111 Y152.976 E9.72002
G1 X117.191 Y152.989 E9.75062
G1 X116.004 Y152.888 E9.79024
G1 X115.219 Y152.776 E9.81661
G1 X113.984 Y152.58 E9.8582
G1 X113.286 Y152.46 E9.88176
G1 X112.386 Y152.264 E9.9124
G1 X111.507 Y151.992 E9.943
G1 X110.413 Y151.529 E9.98251
G1 X109.576 Y151.117 E10.01354
G1 X108.561 Y150.599 E10.05144
G1 X107.963 Y150.284 E10.07392
G1 X107.168 Y149.82 E10.10454
G1 X106.416 Y149.289 E10.13515
G1 X105.515 Y148.507 E10.17484
G1 X104.796 Y147.806 E10.20823
G1 X104.063 Y147.071 E10.24276
G1 X103.571 Y146.565 E10.26623
G1 X102.959 Y145.878 E10.29683
G1 X102.408 Y145.14 E10.32747
G1 X101.804 Y144.137 E10.36641
G1 X101.367 Y143.31 E10.39752
G1 X100.874 Y142.344 E10.43359
G1 X100.55 Y141.687 E10.45796
G1 X100.179 Y140.845 E10.48856
G1 X99.883 Y139.973 E10.51919
G1 X99.613 Y138.813 E10.5588
G1 X99.472 Y138.001 E10.58621
G1 X99.276 Y136.765 E10.62783
G1 X99.179 Y136.092 E10.65045
G1 X99.088 Y135.176 E10.68107
G1 X99.076 Y134.256 E10.71167
G1 X99.178 Y133.081 E10.7509
G1 X99.309 Y132.17 E10.78151
G1 X99.493 Y131.014 E10.82044
G1 X99.607 Y130.356 E10.84265
G1 X99.693 Y129.916 E10.85756
G1 X100.269 Y127.266 E10.94776
G1 X100.739 Y124.761 E11.03253
G1 X101.136 Y122.258 E11.11682
G1 X101.458 Y119.772 E11.2002
G1 X101.715 Y117.232 E11.28511
G1 X101.894 Y114.751 E11.36784
G1 X102.007 Y112.195 E11.45294
G1 X102.049 Y109.415 E11.54541
G1 X102.048 Y93.112 E12.08765
G1 X102.059 Y92.433 E12.11024
G1 X102.114 Y91.514 E12.14086
G1 X102.249 Y90.603 E12.17149
G1 X102.462 Y89.708 E12.20209
G1 X102.751 Y88.834 E12.23271
G1 X103.116 Y87.989 E12.26332
G1 X103.553 Y87.178 E12.29396
G1 X104.058 Y86.408 E12.32459
G1 X104.628 Y85.686 E12.35518
G0 F6000 X105.022 Y85.843
G1 F1200 X105.65 Y85.194 E12.38522
G1 X106.333 Y84.603 E12.41526
G1 X107.065 Y84.075 E12.44528
G1 X107.842 Y83.614 E12.47533
G1 X108.656 Y83.223 E12.50536
G1 X109.501 Y82.906 E12.53538
G1 X110.372 Y82.665 E12.56544
G1 X111.26 Y82.501 E12.59547
G1 X112.395 Y82.408 E12.63335
G1 X112.783 Y82.398 E12.64626
G1 X113.049 Y82.395 E12.65511
G1 X121.096 Y82.398 E12.92275
G1 X121.766 Y82.408 E12.94504
G1 X122.668 Y82.462 E12.97509
G1 X123.561 Y82.595 E13.00512
G1 X124.439 Y82.806 E13.03516
G1 X125.295 Y83.094 E13.0652
G1 X126.122 Y83.457 E13.09523
G1 X126.914 Y83.892 E13.12529
G1 X127.664 Y84.395 E13.15532
G1 X128.366 Y84.962 E13.18534
G1 X129.016 Y85.589 E13.21538
G1 X129.608 Y86.271 E13.24541
G1 X130.137 Y87.003 E13.27545
G1 X130.599 Y87.779 E13.30549
G1 X130.991 Y88.593 E13.33554
G1 X131.309 Y89.438 E13.36557
G1 X131.552 Y90.308 E13.39561
G1 X131.716 Y91.196 E13.42565
G1 X131.809 Y92.281 E13.46187
G1 X131.819 Y92.594 E13.47228
G1 X131.824 Y92.919 E13.48309
G1 X131.826 Y106.599 E13.93809
G1 X131.863 Y109.2 E14.02461
G1 X131.973 Y111.774 E14.1103
G1 X132.15 Y114.266 E14.19339
G1 X132.404 Y116.828 E14.27902
G1 X132.724 Y119.327 E14.36282
G1 X133.118 Y121.832 E14.44716
G1 X133.582 Y124.33 E14.53166
G1 X134.117 Y126.812 E14.61611
G1 X134.82 Y129.655 E14.71352
G1 X134.966 Y130.347 E14.73704
G1 X135.142 Y131.364 E14.77137
G1 X135.304 Y132.393 E14.80602
G1 X135.407 Y133.103 E14.82988
G1 X135.497 Y134.001 E14.85989
G1 X135.507 Y134.904 E14.88993
G1 X135.411 Y136.006 E14.92672
G1 X135.279 Y136.922 E14.9575
G1 X135.095 Y138.078 E14.99644
G1 X134.98 Y138.736 E15.01865
G1 X134.785 Y139.618 E15.0487
G1 X134.513 Y140.479 E15.07873
G1 X134.095 Y141.461 E15.11423
G1 X133.663 Y142.341 E15.14683
G1 X133.177 Y143.294 E15.18241
G1 X132.849 Y143.917 E15.20583
G1 X132.393 Y144.697 E15.23588
G1 X131.87 Y145.433 E15.26591
G1 X131.139 Y146.273 E15.30295
G1 X130.495 Y146.934 E15.33364
G1 X129.732 Y147.697 E15.36953
G1 X129.209 Y148.206 E15.3938
G1 X128.535 Y148.806 E15.42382
G1 X127.81 Y149.345 E15.45386
G1 X126.869 Y149.91 E15.49037
G1 X126.065 Y150.334 E15.5206
G1 X125.032 Y150.859 E15.55914
G1 X124.43 Y151.156 E15.58147
G1 X123.603 Y151.52 E15.61152
G1 X122.747 Y151.808 E15.64156
G1 X121.66 Y152.059 E15.67867
G1 X120.752 Y152.215 E15.70931
G1 X119.677 Y152.385 E15.74551
G1 X118.969 Y152.488 E15.7693
G1 X118.071 Y152.578 E15.79932
G1 X117.168 Y152.589 E15.82936
G1 X116.06 Y152.492 E15.86635
G1 X115.275 Y152.38 E15.89272
G1 X114.052 Y152.186 E15.93391
G1 X113.354 Y152.066 E15.95747
G1 X112.471 Y151.873 E15.98753
G1 X111.609 Y151.604 E16.01756
G1 X110.589 Y151.17 E16.05443
G1 X109.758 Y150.761 E16.08524
G1 X108.747 Y150.246 E16.12297
G1 X108.149 Y149.931 E16.14545
G1 X107.37 Y149.475 E16.17548
G1 X106.633 Y148.952 E16.20553
G1 X105.794 Y148.22 E16.24257
G1 X105.079 Y147.524 E16.27575
G1 X104.35 Y146.793 E16.31009
G1 X103.858 Y146.287 E16.33356
G1 X103.258 Y145.612 E16.3636
G1 X102.72 Y144.887 E16.39363
G1 X102.157 Y143.95 E16.42999
G1 X101.723 Y143.128 E16.4609
G1 X101.233 Y142.167 E16.49678
G1 X100.909 Y141.51 E16.52115
G1 X100.546 Y140.684 E16.55116
G1 X100.257 Y139.828 E16.58121
G1 X100.007 Y138.744 E16.61821
G1 X99.866 Y137.932 E16.64562
G1 X99.672 Y136.708 E16.68684
G1 X99.575 Y136.035 E16.70945
G1 X99.486 Y135.136 E16.7395
G1 X99.477 Y134.233 E16.76953
G1 X99.574 Y133.138 E16.8061
G1 X99.704 Y132.232 E16.83654
G1 X99.887 Y131.083 E16.87524
G1 X100.001 Y130.425 E16.89745
G1 X100.083 Y130.001 E16.91181
G1 X100.666 Y127.319 E17.0031
G1 X101.134 Y124.827 E17.08743
G1 X101.528 Y122.34 E17.17118
G1 X101.858 Y119.792 E17.25663
G1 X102.114 Y117.265 E17.34111
G1 X102.295 Y114.762 E17.42458
G1 X102.407 Y112.219 E17.50924
G1 X102.449 Y109.421 E17.60232
G1 X102.448 Y93.119 E18.14452
G1 X102.459 Y92.44 E18.16711
G1 X102.514 Y91.538 E18.19717
G1 X102.648 Y90.645 E18.2272
G1 X102.861 Y89.768 E18.25722
G1 X103.15 Y88.912 E18.28727
G1 X103.514 Y88.085 E18.31732
G1 X103.95 Y87.294 E18.34736
G1 X104.453 Y86.545 E18.37737
G1 X105.022 Y85.843 E18.40742
G1 F2700 E13.40742
;MESH:v7armAileron Rudder Elevator Sensors.stl
G0 F6000 X111.983 Y93.01
G0 X113.061 Y93.009
G0 X120.842 Y93.379
G0 X120.779 Y113.329
G0 X120.525 Y113.501
;TYPE:WALL-INNER
G1 F2700 E18.40742
G1 F1200 X120.951 Y113.501 E18.42159
G1 X120.95 Y98.385 E18.92435
G1 X120.565 Y98.385 E18.93716
G1 X120.476 Y97.818 E18.95625
G1 X120.029 Y96.939 E18.98904
G1 X119.328 Y96.244 E19.02188
G1 X118.457 Y95.8 E19.05439
G1 X117.482 Y95.647 E19.08722
G1 X116.516 Y95.8 E19.11975
G1 X115.64 Y96.246 E19.15244
G1 X114.945 Y96.942 E19.18516
G1 X114.498 Y97.822 E19.21799
G1 X114.41 Y98.386 E19.23697
G1 X114.023 Y98.386 E19.24984
G1 X114.025 Y113.502 E19.7526
G1 X114.452 Y113.502 E19.76681
G1 X114.501 Y113.812 E19.77724
G1 X114.946 Y114.688 E19.80992
G1 X115.647 Y115.385 E19.8428
G1 X116.523 Y115.829 E19.87547
G1 X117.493 Y115.983 E19.90813
G1 X118.461 Y115.829 E19.94073
G1 X119.337 Y115.382 E19.97344
G1 X120.033 Y114.685 E20.00621
G1 X120.176 Y114.4 E20.01681
G1 X120.479 Y113.81 E20.03887
G1 X120.525 Y113.501 E20.04926
G0 F6000 X120.551 Y113.101
;TYPE:WALL-OUTER
G1 F1200 X120.55 Y98.785 E20.52541
G1 X120.223 Y98.785 E20.53629
G1 X120.091 Y97.943 E20.56464
G1 X119.702 Y97.178 E20.59318
G1 X119.091 Y96.572 E20.6218
G1 X118.332 Y96.185 E20.65014
G1 X117.482 Y96.052 E20.67876
G1 X116.641 Y96.185 E20.70707
G1 X115.878 Y96.574 E20.73556
G1 X115.273 Y97.18 E20.76404
G1 X114.883 Y97.947 E20.79266
G1 X114.752 Y98.786 E20.8209
G1 X114.423 Y98.786 E20.83185
G1 X114.425 Y113.102 E21.308
G1 X114.793 Y113.102 E21.32024
G1 X114.886 Y113.687 E21.33994
G1 X115.274 Y114.45 E21.36841
G1 X115.884 Y115.057 E21.39703
G1 X116.648 Y115.444 E21.42552
G1 X117.493 Y115.578 E21.45397
G1 X118.336 Y115.444 E21.48236
G1 X119.099 Y115.055 E21.51085
G1 X119.704 Y114.448 E21.53935
G1 X119.82 Y114.217 E21.54795
G1 X120.093 Y113.686 E21.56781
G1 X120.134 Y113.41 E21.57709
G1 X120.184 Y113.101 E21.5875
G1 X120.551 Y113.101 E21.59971
G1 F2700 E16.59971
G0 F6000 X120.851 Y113.101
G0 X121.211 Y128.252
G0 X122.287 Y127.596
G0 X118.974 Y132.532
G0 X119.84 Y131.34
G0 X120.955 Y133.45
G0 X121.13 Y134.573
G0 X120.954 Y135.698
G0 X120.436 Y136.711
G0 X119.505 Y137.584
G0 X118.747 Y137.971
G0 X117.49 Y138.396
;TYPE:WALL-INNER
G1 F2700 E21.59971
G1 F1200 X118.618 Y138.216 E21.6377
G1 X119.58 Y137.726 E21.67361
G1 X119.73 Y137.645 E21.67928
G1 X120.568 Y136.807 E21.71869
G1 X121.108 Y135.748 E21.75823
G1 X121.293 Y134.573 E21.79779
G1 X121.109 Y133.399 E21.83732
G1 X120.569 Y132.338 E21.87691
G1 X119.726 Y131.496 E21.91654
G1 X118.666 Y130.957 E21.95609
G1 X117.491 Y130.77 E21.99567
G1 X116.316 Y130.957 E22.03524
G1 X115.257 Y131.496 E22.07476
G1 X114.415 Y132.338 E22.11437
