;FLAVOR:Marlin
;TIME:12057
;Filament used: 8.74738m
;Layer height: 0.16
;MINX:38.55
;MINY:86.701
;MINZ:0.2
;MAXX:196.45
;MAXY:148.299
;MAXZ:13.4
;Generated with Cura_SteamEngine 4.8.0
M140 S50
M105
M190 S50
M104 S200
M105
M109 S200
M82 ;absolute extrusion mode
; Ender 3 Custom Start G-code
G92 E0 ; Reset Extruder
G28 ; Home all axes
G1 Z2.0 F3000 ; Move Z Axis up little to prevent scratching of Heat Bed
G1 X0.1 Y20 Z0.3 F5000.0 ; Move to start position
G1 X0.1 Y200.0 Z0.3 F1500.0 E15 ; Draw the first line
G1 X0.4 Y200.0 Z0.3 F5000.0 ; Move to side a little
G1 X0.4 Y20 Z0.3 F1500.0 E30 ; Draw the second line
G92 E0 ; Reset Extruder
G1 Z2.0 F3000 ; Move Z Axis up little to prevent scratching of Heat Bed
G1 X5 Y20 Z0.3 F5000.0 ; Move over to prevent blob squish
G92 E0
G92 E0
G1 F2700 E-5
;LAYER_COUNT:78
;LAYER:0
M107
G0 F6000 X44.805 Y88.389 Z0.2
;TYPE:SKIRT
G1 F2700 E0
G1 F1200 X45.667 Y88.02 E0.03119
G1 X46.558 Y87.726 E0.06239
G1 X47.47 Y87.508 E0.09358
G1 X48.397 Y87.37 E0.12475
G1 X49.251 Y87.312 E0.15322
G1 X49.571 Y87.303 E0.16387
G1 X49.88 Y87.299 E0.17415
G1 X98.626 Y87.299 E1.79545
G1 X101.234 Y87.262 E1.8822
G1 X103.755 Y87.155 E1.96612
G1 X106.23 Y86.98 E2.04865
G1 X108.06 Y86.798 E2.10981
G1 X108.618 Y86.75 E2.12844
G1 X109.251 Y86.714 E2.14953
G1 X109.57 Y86.705 E2.16014
G1 X109.88 Y86.701 E2.17045
G1 X124.843 Y86.701 E2.66813
G1 X125.699 Y86.712 E2.6966
G1 X126.612 Y86.763 E2.72701
G1 X127.554 Y86.855 E2.75849
G1 X130.185 Y87.078 E2.84631
G1 X132.608 Y87.216 E2.92703
G1 X136.563 Y87.299 E3.05861
G1 X184.901 Y87.3 E4.66633
G1 X185.599 Y87.31 E4.68955
G1 X186.535 Y87.364 E4.72074
G1 X187.463 Y87.496 E4.75191
G1 X188.377 Y87.708 E4.78312
G1 X189.269 Y87.997 E4.8143
G1 X190.134 Y88.36 E4.84551
G1 X190.964 Y88.796 E4.87669
G1 X191.755 Y89.301 E4.9079
G1 X192.499 Y89.872 E4.9391
G1 X193.192 Y90.504 E4.97029
G1 X193.829 Y91.192 E5.00148
G1 X194.404 Y91.933 E5.03267
G1 X194.915 Y92.719 E5.06385
G1 X195.357 Y93.547 E5.09507
G1 X195.726 Y94.409 E5.12626
G1 X196.021 Y95.299 E5.15744
G1 X196.239 Y96.211 E5.18863
G1 X196.379 Y97.139 E5.21984
G1 X196.437 Y98 E5.24855
G1 X196.446 Y98.32 E5.25919
G1 X196.45 Y98.629 E5.26947
G1 X196.449 Y121.299 E6.02348
G1 X196.44 Y122.026 E6.04766
G1 X196.389 Y122.963 E6.07887
G1 X196.257 Y123.891 E6.11005
G1 X196.048 Y124.805 E6.14123
G1 X195.761 Y125.698 E6.17243
G1 X195.399 Y126.564 E6.20365
G1 X194.965 Y127.395 E6.23483
G1 X194.461 Y128.186 E6.26603
G1 X193.892 Y128.931 E6.2972
G1 X193.261 Y129.626 E6.32843
G1 X192.574 Y130.264 E6.35961
G1 X191.835 Y130.841 E6.39079
G1 X191.049 Y131.353 E6.42199
G1 X190.223 Y131.796 E6.45317
G1 X189.361 Y132.168 E6.48439
G1 X188.472 Y132.464 E6.51556
G1 X187.56 Y132.684 E6.54676
G1 X186.633 Y132.825 E6.57795
G1 X186.064 Y132.872 E6.59694
G1 X185.331 Y132.913 E6.62136
G1 X183.867 Y132.976 E6.67009
G1 X181.37 Y133.154 E6.75335
G1 X178.887 Y133.403 E6.83635
G1 X176.352 Y133.728 E6.92136
G1 X173.87 Y134.119 E7.00493
G1 X171.413 Y134.577 E7.08806
G1 X168.974 Y135.104 E7.17105
G1 X166.506 Y135.71 E7.25557
G1 X164.057 Y136.386 E7.34007
G1 X161.655 Y137.122 E7.42363
G1 X159.313 Y137.913 E7.50585
G1 X156.925 Y138.796 E7.59053
G1 X154.555 Y139.749 E7.67549
G1 X152.292 Y140.735 E7.75759
G1 X150.01 Y141.806 E7.84144
G1 X147.727 Y142.958 E7.92649
G1 X145.552 Y144.133 E8.00871
G1 X143.364 Y145.397 E8.09275
G1 X141.465 Y146.567 E8.16694
G1 X141.196 Y146.728 E8.17737
G1 X140.372 Y147.175 E8.20855
G1 X139.512 Y147.55 E8.23975
G1 X138.624 Y147.85 E8.27093
G1 X137.713 Y148.074 E8.30213
G1 X136.786 Y148.219 E8.33334
G1 X135.875 Y148.284 E8.36371
G1 X135.54 Y148.294 E8.37486
G1 X135.212 Y148.299 E8.38577
G1 X99.085 Y148.298 E9.58736
G1 X98.381 Y148.287 E9.61078
G1 X97.445 Y148.232 E9.64196
G1 X96.517 Y148.098 E9.67315
G1 X95.603 Y147.885 E9.70436
G1 X95.068 Y147.722 E9.72296
G1 X94.192 Y147.387 E9.75416
G1 X93.348 Y146.98 E9.78532
G1 X92.776 Y146.651 E9.80727
G1 X91.791 Y146.044 E9.84575
G1 X89.524 Y144.693 E9.93353
G1 X87.357 Y143.483 E10.01608
G1 X85.126 Y142.318 E10.09979
G1 X82.829 Y141.201 E10.18474
G1 X80.565 Y140.178 E10.26737
G1 X78.21 Y139.191 E10.3523
G1 X75.898 Y138.301 E10.4347
G1 X73.523 Y137.463 E10.51846
G1 X71.111 Y136.687 E10.60274
G1 X68.721 Y135.992 E10.68552
G1 X66.256 Y135.35 E10.77024
G1 X63.79 Y134.78 E10.85443
G1 X61.349 Y134.293 E10.93721
G1 X58.868 Y133.866 E11.02095
G1 X56.357 Y133.509 E11.1053
G1 X53.876 Y133.226 E11.18835
G1 X51.393 Y133.015 E11.27124
G1 X49.184 Y132.89 E11.34483
G1 X48.708 Y132.855 E11.3607
G1 X47.777 Y132.743 E11.39189
G1 X46.859 Y132.552 E11.42308
G1 X45.961 Y132.283 E11.45426
G1 X45.088 Y131.939 E11.48546
G1 X44.248 Y131.521 E11.51667
G1 X43.447 Y131.034 E11.54785
G1 X42.69 Y130.48 E11.57905
G1 X41.983 Y129.864 E11.61024
G1 X41.331 Y129.189 E11.64145
G1 X40.739 Y128.462 E11.67263
G1 X40.212 Y127.687 E11.70381
G1 X39.752 Y126.869 E11.73502
G1 X39.363 Y126.016 E11.7662
G1 X39.048 Y125.132 E11.79741
G1 X38.81 Y124.225 E11.8286
G1 X38.65 Y123.301 E11.85979
G1 X38.563 Y122.187 E11.89696
G1 X38.554 Y121.856 E11.90797
G1 X38.55 Y121.557 E11.91792
G1 X38.551 Y98.808 E12.67455
G1 X38.561 Y98.143 E12.69667
G1 X38.615 Y97.206 E12.72789
G1 X38.749 Y96.278 E12.75907
G1 X38.961 Y95.364 E12.79028
G1 X39.25 Y94.472 E12.82147
G1 X39.615 Y93.608 E12.85266
G1 X40.051 Y92.778 E12.88385
G1 X40.557 Y91.988 E12.91505
G1 X41.128 Y91.244 E12.94624
G1 X41.76 Y90.551 E12.97744
G1 X42.449 Y89.915 E13.00862
G1 X43.19 Y89.34 E13.03982
G1 X43.977 Y88.83 E13.07101
G1 X44.805 Y88.389 E13.10221
G0 F6000 X45.177 Y88.657
G1 F1200 X46.031 Y88.313 E13.13283
G1 X46.911 Y88.044 E13.16344
G1 X47.812 Y87.853 E13.19407
G1 X48.726 Y87.741 E13.2247
G1 X49.262 Y87.712 E13.24255
G1 X49.582 Y87.703 E13.2532
G1 X49.88 Y87.699 E13.26311
G1 X98.632 Y87.699 E14.88461
G1 X101.257 Y87.662 E14.97193
G1 X103.765 Y87.555 E15.05542
G1 X106.265 Y87.378 E15.13878
G1 X108.095 Y87.197 E15.19994
G1 X108.653 Y87.149 E15.21857
G1 X109.262 Y87.114 E15.23886
G1 X109.581 Y87.105 E15.24947
G1 X109.88 Y87.101 E15.25942
G1 X124.843 Y87.101 E15.75709
G1 X125.693 Y87.112 E15.78536
G1 X126.573 Y87.161 E15.81468
G1 X127.559 Y87.258 E15.84763
G1 X130.127 Y87.475 E15.93335
G1 X132.607 Y87.616 E16.01597
G1 X136.554 Y87.699 E16.14727
G1 X184.895 Y87.7 E17.7551
G1 X185.593 Y87.71 E17.77832
G1 X186.512 Y87.763 E17.80894
G1 X187.423 Y87.896 E17.83956
G1 X188.319 Y88.107 E17.87017
G1 X189.193 Y88.395 E17.90078
G1 X190.04 Y88.758 E17.93143
G1 X190.851 Y89.193 E17.96204
G1 X191.621 Y89.697 E17.99265
G1 X192.345 Y90.266 E18.02327
G1 X193.017 Y90.896 E18.05391
G1 X193.632 Y91.581 E18.08453
G1 X194.185 Y92.317 E18.11515
G1 X194.672 Y93.098 E18.14576
G1 X195.089 Y93.919 E18.17639
G1 X195.434 Y94.773 E18.20702
G1 X195.703 Y95.653 E18.23763
G1 X195.895 Y96.554 E18.26827
G1 X196.008 Y97.467 E18.29887
G1 X196.037 Y98.011 E18.31699
G1 X196.046 Y98.331 E18.32763
G1 X196.05 Y98.629 E18.33755
G1 X196.049 Y121.294 E19.09139
G1 X196.04 Y122.021 E19.11557
G1 X195.989 Y122.94 E19.14618
G1 X195.858 Y123.852 E19.17683
G1 X195.648 Y124.748 E19.20744
G1 X195.362 Y125.623 E19.23805
G1 X195.001 Y126.47 E19.26868
G1 X194.567 Y127.282 E19.2993
G1 X194.065 Y128.054 E19.32993
G1 X193.497 Y128.779 E19.36056
G1 X192.869 Y129.452 E19.39118
G1 X192.185 Y130.068 E19.42179
G1 X191.45 Y130.622 E19.4524
G1 X190.67 Y131.111 E19.48302
G1 X189.85 Y131.53 E19.51365
G1 X188.997 Y131.876 E19.54427
G1 X188.117 Y132.147 E19.57489
G1 X187.217 Y132.34 E19.60551
G1 X186.041 Y132.473 E19.64487
G1 X185.313 Y132.513 E19.66912
G1 X183.857 Y132.575 E19.71759
G1 X181.337 Y132.755 E19.80162
G1 X178.832 Y133.006 E19.88535
G1 X176.31 Y133.33 E19.96993
G1 X173.806 Y133.724 E20.05423
G1 X171.327 Y134.187 E20.13811
G1 X168.892 Y134.713 E20.22097
G1 X166.385 Y135.328 E20.30682
G1 X163.971 Y135.994 E20.39011
G1 X161.515 Y136.747 E20.47555
G1 X159.183 Y137.534 E20.55741
G1 X156.773 Y138.425 E20.64287
G1 X154.438 Y139.365 E20.72659
G1 X152.099 Y140.384 E20.81145
G1 X149.838 Y141.445 E20.89452
G1 X147.564 Y142.592 E20.97923
G1 X145.341 Y143.794 E21.06328
G1 X143.15 Y145.059 E21.14743
G1 X141.26 Y146.223 E21.22126
G1 X140.991 Y146.384 E21.23168
G1 X140.181 Y146.822 E21.26231
G1 X139.336 Y147.189 E21.29295
G1 X138.463 Y147.48 E21.32356
G1 X137.568 Y147.695 E21.35417
G1 X136.657 Y147.831 E21.38481
G1 X135.863 Y147.884 E21.41128
G1 X135.528 Y147.894 E21.42242
G1 X135.212 Y147.899 E21.43294
G1 X99.091 Y147.898 E22.63432
G1 X98.387 Y147.887 E22.65774
G1 X97.468 Y147.832 E22.68836
G1 X96.557 Y147.698 E22.71899
G1 X95.662 Y147.486 E22.74958
G1 X95.195 Y147.342 E22.76584
G1 X94.335 Y147.013 E22.79646
G1 X93.507 Y146.611 E22.82707
G1 X92.986 Y146.31 E22.84709
G1 X92 Y145.703 E22.8856
G1 X89.745 Y144.358 E22.97293
G1 X87.558 Y143.138 E23.05622
G1 X85.28 Y141.948 E23.1417
G1 X83.033 Y140.855 E23.22481
G1 X80.705 Y139.802 E23.30979
G1 X78.359 Y138.82 E23.39438
G1 X76.038 Y137.927 E23.47709
G1 X73.642 Y137.081 E23.56161
G1 X71.239 Y136.308 E23.64556
G1 X68.819 Y135.604 E23.72939
G1 X66.342 Y134.959 E23.81452
G1 X63.892 Y134.393 E23.89816
G1 X61.416 Y133.899 E23.98213
G1 X58.926 Y133.471 E24.06616
G1 X56.422 Y133.114 E24.15029
G1 X53.919 Y132.829 E24.23408
G1 X51.379 Y132.613 E24.31886
G1 X49.207 Y132.49 E24.39122
G1 X48.739 Y132.456 E24.40683
G1 X47.825 Y132.345 E24.43745
G1 X46.925 Y132.155 E24.46804
G1 X46.044 Y131.888 E24.49866
G1 X45.189 Y131.545 E24.5293
G1 X44.368 Y131.13 E24.5599
G1 X43.585 Y130.644 E24.59055
G1 X42.848 Y130.093 E24.62116
G1 X42.161 Y129.48 E24.65178
G1 X41.531 Y128.809 E24.68239
G1 X40.96 Y128.086 E24.71303
G1 X40.455 Y127.317 E24.74363
G1 X40.018 Y126.507 E24.77424
G1 X39.653 Y125.661 E24.80489
G1 X39.363 Y124.787 E24.83552
G1 X39.15 Y123.892 E24.86612
G1 X39.016 Y122.981 E24.89674
G1 X38.963 Y122.176 E24.92358
G1 X38.954 Y121.845 E24.93459
G1 X38.95 Y121.557 E24.94417
G1 X38.951 Y98.814 E25.7006
G1 X38.961 Y98.149 E25.72272
G1 X39.015 Y97.23 E25.75334
G1 X39.148 Y96.319 E25.78396
G1 X39.36 Y95.423 E25.81459
G1 X39.649 Y94.548 E25.84524
G1 X40.013 Y93.703 E25.87584
G1 X40.448 Y92.892 E25.90645
G1 X40.953 Y92.121 E25.9371
G1 X41.522 Y91.398 E25.9677
G1 X42.152 Y90.726 E25.99834
G1 X42.838 Y90.112 E26.02896
G1 X43.574 Y89.56 E26.05956
G1 X44.356 Y89.073 E26.0902
G1 X45.177 Y88.657 E26.12081
G0 F6000 X45.547 Y88.931
G1 F1200 X46.392 Y88.612 E26.15085
G1 X47.262 Y88.37 E26.18089
G1 X48.15 Y88.206 E26.21092
G1 X49.273 Y88.112 E26.24841
G1 X49.593 Y88.103 E26.25905
G1 X49.88 Y88.099 E26.2686
G1 X98.638 Y88.099 E27.8903
G1 X101.244 Y88.062 E27.97698
G1 X103.809 Y87.953 E28.06237
G1 X106.296 Y87.777 E28.1453
G1 X107.992 Y87.608 E28.20198
G1 X108.687 Y87.548 E28.22519
G1 X109.273 Y87.514 E28.24471
G1 X109.592 Y87.505 E28.25532
G1 X109.88 Y87.501 E28.2649
G1 X124.843 Y87.501 E28.76257
G1 X125.687 Y87.512 E28.79065
G1 X126.534 Y87.559 E28.81886
G1 X127.488 Y87.652 E28.85074
G1 X130.106 Y87.874 E28.93813
G1 X132.603 Y88.016 E29.02132
G1 X136.546 Y88.099 E29.15249
G1 X184.889 Y88.1 E30.76038
G1 X185.587 Y88.11 E30.7836
G1 X186.489 Y88.163 E30.81365
G1 X187.382 Y88.295 E30.84368
G1 X188.26 Y88.506 E30.87371
G1 X189.116 Y88.794 E30.90375
G1 X189.943 Y89.156 E30.93378
G1 X190.735 Y89.591 E30.96383
G1 X191.486 Y90.093 E30.99388
G1 X192.189 Y90.66 E31.02392
G1 X192.839 Y91.287 E31.05395
G1 X193.431 Y91.969 E31.08399
G1 X193.961 Y92.7 E31.11402
G1 X194.423 Y93.476 E31.14406
G1 X194.816 Y94.289 E31.17409
G1 X195.134 Y95.134 E31.20412
G1 X195.377 Y96.004 E31.23417
G1 X195.542 Y96.892 E31.26421
G1 X195.637 Y98.022 E31.30192
G1 X195.646 Y98.342 E31.31257
G1 X195.65 Y98.629 E31.32212
G1 X195.649 Y121.289 E32.07579
G1 X195.64 Y122.016 E32.09997
G1 X195.589 Y122.918 E32.13002
G1 X195.458 Y123.812 E32.16008
G1 X195.249 Y124.69 E32.19009
G1 X194.963 Y125.547 E32.22014
G1 X194.602 Y126.375 E32.25019
G1 X194.17 Y127.167 E32.28019
G1 X193.669 Y127.919 E32.31025
G1 X193.103 Y128.623 E32.34029
G1 X192.478 Y129.274 E32.37031
G1 X191.797 Y129.868 E32.40036
G1 X191.066 Y130.399 E32.43041
G1 X190.292 Y130.863 E32.46043
G1 X189.479 Y131.257 E32.49048
G1 X188.635 Y131.577 E32.5205
G1 X187.765 Y131.822 E32.55056
G1 X186.878 Y131.988 E32.58057
G1 X186.018 Y132.074 E32.60932
G1 X185.296 Y132.114 E32.63337
G1 X183.812 Y132.178 E32.68277
G1 X181.302 Y132.357 E32.76647
G1 X178.777 Y132.61 E32.85087
G1 X176.263 Y132.932 E32.93517
G1 X173.742 Y133.329 E33.02005
G1 X171.24 Y133.796 E33.10471
G1 X168.791 Y134.325 E33.18804
G1 X166.28 Y134.941 E33.27403
G1 X163.862 Y135.609 E33.35747
G1 X161.439 Y136.351 E33.44175
G1 X158.99 Y137.178 E33.52772
G1 X156.633 Y138.05 E33.61131
G1 X154.295 Y138.991 E33.69513
G1 X151.947 Y140.013 E33.78031
G1 X149.667 Y141.083 E33.86408
G1 X147.373 Y142.241 E33.94954
G1 X145.13 Y143.453 E34.03434
G1 X142.972 Y144.7 E34.11724
G1 X141.169 Y145.811 E34.18768
G1 X140.785 Y146.041 E34.20256
G1 X139.991 Y146.47 E34.23258
G1 X139.161 Y146.827 E34.26263
G1 X138.303 Y147.11 E34.29268
G1 X137.424 Y147.315 E34.3227
G1 X136.53 Y147.442 E34.35274
G1 X135.851 Y147.484 E34.37536
G1 X135.516 Y147.494 E34.38651
G1 X135.212 Y147.499 E34.39662
G1 X99.098 Y147.498 E35.59778
G1 X98.394 Y147.487 E35.6212
G1 X97.492 Y147.433 E35.65125
G1 X96.599 Y147.299 E35.68128
G1 X95.321 Y146.963 E35.72524
G1 X94.478 Y146.639 E35.75527
G1 X93.667 Y146.243 E35.78529
G1 X93.196 Y145.97 E35.8034
G1 X92.16 Y145.331 E35.84388
G1 X89.965 Y144.023 E35.92887
G1 X87.717 Y142.768 E36.0145
G1 X85.476 Y141.598 E36.09858
G1 X83.194 Y140.488 E36.18298
G1 X80.875 Y139.44 E36.26763
G1 X78.532 Y138.459 E36.35211
G1 X76.166 Y137.548 E36.43643
G1 X73.76 Y136.698 E36.5213
G1 X71.358 Y135.926 E36.60522
G1 X68.927 Y135.219 E36.68943
G1 X66.427 Y134.568 E36.77535
G1 X63.963 Y133.999 E36.85946
G1 X61.52 Y133.511 E36.94232
G1 X58.979 Y133.074 E37.02807
G1 X56.488 Y132.719 E37.11176
G1 X53.931 Y132.428 E37.19736
G1 X51.436 Y132.216 E37.28064
G1 X49.229 Y132.091 E37.35416
G1 X48.77 Y132.057 E37.36947
G1 X47.874 Y131.948 E37.39949
G1 X46.991 Y131.759 E37.42953
G1 X46.128 Y131.493 E37.45956
G1 X45.291 Y131.152 E37.48962
G1 X44.489 Y130.739 E37.51963
G1 X43.726 Y130.255 E37.54968
G1 X43.008 Y129.707 E37.57972
G1 X42.343 Y129.097 E37.60973
G1 X41.733 Y128.43 E37.6398
G1 X41.185 Y127.712 E37.66984
G1 X40.703 Y126.949 E37.69986
G1 X40.29 Y126.145 E37.72992
G1 X39.95 Y125.309 E37.75994
G1 X39.685 Y124.445 E37.78999
G1 X39.497 Y123.562 E37.82002
G1 X39.389 Y122.666 E37.85004
G1 X39.363 Y122.165 E37.86672
G1 X39.354 Y121.834 E37.87774
G1 X39.35 Y121.557 E37.88695
G1 X39.351 Y98.82 E38.64319
G1 X39.361 Y98.155 E38.66531
G1 X39.415 Y97.253 E38.69536
G1 X39.548 Y96.36 E38.72539
G1 X39.759 Y95.482 E38.75542
G1 X40.048 Y94.626 E38.78547
G1 X40.411 Y93.799 E38.81551
G1 X40.845 Y93.008 E38.84552
G1 X41.348 Y92.257 E38.87558
G1 X41.916 Y91.555 E38.90562
G1 X42.543 Y90.905 E38.93566
G1 X43.225 Y90.313 E38.96569
G1 X43.957 Y89.784 E38.99573
G1 X44.733 Y89.322 E39.02577
G1 X45.547 Y88.931 E39.05581
G1 F2700 E34.05581
G0 F6000 X115.614 Y127.977
G0 X115.943 Y128.306
G1 F2700 E39.05581
G1 F1200 X116.457 Y128.044 E39.07499
G1 X117.028 Y127.953 E39.09422
G1 X117.598 Y128.044 E39.11342
G1 X118.116 Y128.308 E39.13276
G1 X118.52 Y128.712 E39.15176
G1 X118.783 Y129.227 E39.171
G1 X118.874 Y129.799 E39.19026
G1 X118.783 Y130.369 E39.20946
G1 X118.521 Y130.883 E39.22865
G1 X118.112 Y131.292 E39.24789
G1 X117.603 Y131.552 E39.2669
G1 X117.029 Y131.642 E39.28622
G1 X116.453 Y131.551 E39.30562
G1 X115.945 Y131.293 E39.32457
G1 X115.536 Y130.884 E39.3438
G1 X115.274 Y130.37 E39.36299
G1 X115.184 Y129.798 E39.38225
G1 X115.274 Y129.226 E39.40151
G1 X115.535 Y128.714 E39.42062
G1 X115.943 Y128.306 E39.43982
G0 F6000 X115.704 Y127.979
G1 F1200 X116.332 Y127.659 E39.46326
G1 X117.028 Y127.548 E39.4867
G1 X117.723 Y127.658 E39.5101
G1 X118.355 Y127.981 E39.53371
G1 X118.847 Y128.473 E39.55685
G1 X119.168 Y129.103 E39.58037
G1 X119.279 Y129.798 E39.60378
G1 X119.168 Y130.494 E39.62722
G1 X118.848 Y131.122 E39.65066
G1 X118.351 Y131.619 E39.67404
G1 X117.728 Y131.937 E39.6973
G1 X117.029 Y132.047 E39.72084
G1 X116.33 Y131.937 E39.74437
G1 X115.704 Y131.619 E39.76773
G1 X115.209 Y131.123 E39.79103
G1 X114.889 Y130.495 E39.81448
