;FLAVOR:Marlin
;TIME:5694
;Filament used: 3.21675m
;Layer height: 0.2
;MINX:98.899
;MINY:87.99
;MINZ:0.2
;MAXX:134.397
;MAXY:146.99
;MAXZ:54.4
;Generated with Cura_SteamEngine 4.8.0
M140 S50
M105
M190 S50
M104 S220
M105
M109 S220
M82 ;absolute extrusion mode
; Ender 3 Custom Start G-code
G92 E0 ; Reset Extruder
G28 ; Home all axes
G1 Z2.0 F3000 ; Move Z Axis up little to prevent scratching of Heat Bed
G1 X0.1 Y20 Z0.3 F5000.0 ; Move to start position
G1 X0.1 Y200.0 Z0.3 F1500.0 E15 ; Draw the first line
G1 X0.4 Y200.0 Z0.3 F5000.0 ; Move to side a little
G1 X0.4 Y20 Z0.3 F1500.0 E30 ; Draw the second line
G92 E0 ; Reset Extruder
G1 Z2.0 F3000 ; Move Z Axis up little to prevent scratching of Heat Bed
G1 X5 Y20 Z0.3 F5000.0 ; Move over to prevent blob squish
G92 E0
G92 E0
G1 F2700 E-5
;LAYER_COUNT:272
;LAYER:0
M107
G0 F6000 X102.22 Y94.032 Z0.2
;TYPE:SKIRT
G1 F2700 E0
G1 F1200 X102.897 Y93.383 E0.03119
G1 X103.627 Y92.794 E0.06239
G1 X104.404 Y92.269 E0.09358
G1 X105.426 Y91.713 E0.13228
G1 X106.166 Y91.36 E0.15955
G1 X108.519 Y90.191 E0.24693
G1 X110.222 Y89.292 E0.31098
G1 X110.413 Y89.195 E0.31811
G1 X111.267 Y88.807 E0.34931
G1 X112.15 Y88.492 E0.38049
G1 X113.057 Y88.254 E0.41168
G1 X113.982 Y88.094 E0.4429
G1 X115.218 Y88.004 E0.48412
G1 X116.03 Y87.991 E0.51113
G1 X122.69 Y87.99 E0.73264
G1 X123.546 Y88.001 E0.76111
G1 X124.482 Y88.055 E0.7923
G1 X125.41 Y88.187 E0.82347
G1 X126.324 Y88.399 E0.85468
G1 X127.216 Y88.688 E0.88587
G1 X128.081 Y89.051 E0.91707
G1 X128.911 Y89.487 E0.94825
G1 X129.702 Y89.992 E0.97946
G1 X130.446 Y90.563 E1.01066
G1 X131.139 Y91.195 E1.04185
G1 X131.776 Y91.883 E1.07304
G1 X132.351 Y92.624 E1.10423
G1 X132.862 Y93.41 E1.13541
G1 X133.304 Y94.238 E1.16663
G1 X133.673 Y95.1 E1.19782
G1 X133.968 Y95.99 E1.229
G1 X134.186 Y96.902 E1.26019
G1 X134.326 Y97.83 E1.2914
G1 X134.383 Y98.677 E1.31964
G1 X134.392 Y98.983 E1.32982
G1 X134.397 Y99.306 E1.34057
G1 X134.396 Y135.39 E2.54072
G1 X134.387 Y136.117 E2.56491
G1 X134.336 Y137.054 E2.59612
G1 X134.204 Y137.982 E2.62729
G1 X133.995 Y138.896 E2.65848
G1 X133.708 Y139.789 E2.68968
G1 X133.346 Y140.655 E2.72089
G1 X132.912 Y141.486 E2.75208
G1 X132.408 Y142.277 E2.78327
G1 X131.839 Y143.022 E2.81445
G1 X131.208 Y143.717 E2.84567
G1 X130.521 Y144.355 E2.87686
G1 X129.782 Y144.932 E2.90804
G1 X128.996 Y145.444 E2.93924
G1 X128.17 Y145.887 E2.97041
G1 X127.308 Y146.259 E3.00164
G1 X126.419 Y146.555 E3.0328
G1 X125.507 Y146.775 E3.06401
G1 X124.58 Y146.916 E3.09519
G1 X123.696 Y146.977 E3.12467
G1 X123.375 Y146.986 E3.13535
G1 X123.067 Y146.99 E3.14559
G1 X115.948 Y146.989 E3.38237
G1 X115.244 Y146.979 E3.40579
G1 X114.307 Y146.926 E3.437
G1 X113.379 Y146.793 E3.46818
G1 X112.465 Y146.581 E3.49939
G1 X111.573 Y146.293 E3.53057
G1 X110.722 Y145.936 E3.56126
G1 X110.16 Y145.671 E3.58193
G1 X108.568 Y144.897 E3.6408
G1 X106.27 Y143.86 E3.72466
G1 X105.91 Y143.702 E3.73773
G1 X105.068 Y143.289 E3.76892
G1 X104.264 Y142.807 E3.8001
G1 X103.504 Y142.257 E3.83131
G1 X102.793 Y141.645 E3.86251
G1 X102.137 Y140.974 E3.89372
G1 X101.541 Y140.25 E3.92491
G1 X101.009 Y139.478 E3.95609
G1 X100.715 Y138.981 E3.9753
G1 X100.477 Y138.554 E3.99156
G1 X100.321 Y138.264 E4.00251
G1 X100.155 Y137.944 E4.0145
G1 X99.759 Y137.094 E4.04569
G1 X99.437 Y136.213 E4.07689
G1 X99.191 Y135.308 E4.10808
G1 X99.023 Y134.386 E4.13925
G1 X98.921 Y133.096 E4.18229
G1 X98.901 Y132.084 E4.21595
G1 X98.899 Y131.867 E4.22317
G1 X98.9 Y102.665 E5.19443
G1 X98.91 Y101.974 E5.21742
G1 X98.964 Y101.037 E5.24864
G1 X99.097 Y100.109 E5.27982
G1 X99.308 Y99.195 E5.31102
G1 X99.597 Y98.303 E5.3422
G1 X100.102 Y97.15 E5.38407
G1 X100.29 Y96.78 E5.39787
G1 X100.485 Y96.414 E5.41167
G1 X100.554 Y96.29 E5.41639
G1 X101.044 Y95.491 E5.44756
G1 X101.601 Y94.736 E5.47877
G1 X102.22 Y94.032 E5.50994
G0 F6000 X102.545 Y94.272
G1 F1200 X103.213 Y93.638 E5.54058
G1 X103.933 Y93.065 E5.57118
G1 X104.7 Y92.557 E5.60178
G1 X105.599 Y92.074 E5.63572
G1 X106.312 Y91.733 E5.66201
G1 X108.721 Y90.537 E5.75146
G1 X110.403 Y89.649 E5.81473
G1 X110.594 Y89.552 E5.82185
G1 X111.432 Y89.171 E5.85247
G1 X112.301 Y88.864 E5.88312
G1 X113.192 Y88.634 E5.91373
G1 X114.1 Y88.482 E5.94435
G1 X115.224 Y88.404 E5.98182
G1 X116.036 Y88.391 E6.00883
G1 X122.69 Y88.39 E6.23015
G1 X123.54 Y88.401 E6.25842
G1 X124.459 Y88.454 E6.28904
G1 X125.37 Y88.587 E6.31966
G1 X126.266 Y88.798 E6.35027
G1 X127.14 Y89.086 E6.38088
G1 X127.987 Y89.449 E6.41153
G1 X128.798 Y89.884 E6.44214
G1 X129.568 Y90.388 E6.47275
G1 X130.292 Y90.957 E6.50338
G1 X130.964 Y91.587 E6.53401
G1 X131.579 Y92.272 E6.56463
G1 X132.132 Y93.008 E6.59525
G1 X132.619 Y93.789 E6.62586
G1 X133.036 Y94.61 E6.65649
G1 X133.381 Y95.464 E6.68712
G1 X133.65 Y96.344 E6.71773
G1 X133.842 Y97.245 E6.74837
G1 X133.955 Y98.158 E6.77897
G1 X133.983 Y98.688 E6.79662
G1 X133.992 Y98.994 E6.8068
G1 X133.997 Y99.306 E6.81718
G1 X133.996 Y135.385 E8.01717
G1 X133.987 Y136.112 E8.04136
G1 X133.936 Y137.031 E8.07197
G1 X133.805 Y137.943 E8.10261
G1 X133.595 Y138.839 E8.13322
G1 X133.309 Y139.714 E8.16384
G1 X132.948 Y140.561 E8.19446
G1 X132.514 Y141.373 E8.22509
G1 X132.012 Y142.145 E8.25571
G1 X131.444 Y142.87 E8.28635
G1 X130.816 Y143.543 E8.31696
G1 X130.132 Y144.159 E8.34758
G1 X129.397 Y144.713 E8.37819
G1 X128.617 Y145.202 E8.40881
G1 X127.797 Y145.621 E8.43944
G1 X126.944 Y145.967 E8.47005
G1 X126.064 Y146.238 E8.50068
G1 X125.164 Y146.431 E8.53129
G1 X124.25 Y146.546 E8.56193
G1 X123.685 Y146.577 E8.58075
G1 X123.364 Y146.586 E8.59143
G1 X123.067 Y146.59 E8.60131
G1 X115.953 Y146.589 E8.83793
G1 X115.249 Y146.579 E8.86134
G1 X114.33 Y146.526 E8.89196
G1 X113.419 Y146.393 E8.92258
G1 X112.523 Y146.182 E8.9532
G1 X111.649 Y145.894 E8.98381
G1 X110.892 Y145.574 E9.01114
G1 X110.335 Y145.311 E9.03163
G1 X108.758 Y144.544 E9.08995
G1 X106.465 Y143.509 E9.17363
G1 X106.07 Y143.336 E9.18797
G1 X105.244 Y142.93 E9.21858
G1 X104.456 Y142.454 E9.2492
G1 X103.712 Y141.912 E9.27982
G1 X103.018 Y141.307 E9.31044
G1 X102.379 Y140.644 E9.34107
G1 X101.8 Y139.928 E9.37169
G1 X101.064 Y138.787 E9.41685
G1 X100.826 Y138.36 E9.43311
G1 X100.676 Y138.08 E9.44368
G1 X100.51 Y137.76 E9.45567
G1 X100.122 Y136.925 E9.48629
G1 X99.807 Y136.06 E9.51691
G1 X99.57 Y135.17 E9.54754
G1 X99.41 Y134.264 E9.57814
G1 X99.321 Y133.088 E9.61737
G1 X99.301 Y132.076 E9.65103
G1 X99.299 Y131.867 E9.65799
G1 X99.3 Y102.671 E10.62905
G1 X99.31 Y101.98 E10.65203
G1 X99.363 Y101.061 E10.68265
G1 X99.496 Y100.149 E10.71331
G1 X99.708 Y99.253 E10.74393
G1 X99.996 Y98.379 E10.77454
G1 X100.459 Y97.331 E10.81264
G1 X100.647 Y96.961 E10.82645
G1 X100.834 Y96.609 E10.8397
G1 X100.903 Y96.485 E10.84442
G1 X101.386 Y95.701 E10.87505
G1 X101.934 Y94.961 E10.90568
G1 X102.545 Y94.272 E10.93631
G0 F6000 X102.868 Y94.513
G1 F1200 X103.527 Y93.895 E10.96635
G1 X104.238 Y93.338 E10.9964
G1 X104.995 Y92.847 E11.02641
G1 X105.771 Y92.434 E11.05564
G1 X106.588 Y92.044 E11.08575
G1 X108.891 Y90.9 E11.17128
G1 X110.584 Y90.006 E11.23496
G1 X110.775 Y89.909 E11.24208
G1 X111.598 Y89.536 E11.27214
G1 X112.45 Y89.237 E11.30217
G1 X113.326 Y89.015 E11.33223
G1 X114.217 Y88.871 E11.36225
G1 X115.231 Y88.804 E11.39605
G1 X116.206 Y88.79 E11.42848
G1 X122.69 Y88.79 E11.64414
G1 X123.534 Y88.801 E11.67221
G1 X124.436 Y88.854 E11.70226
G1 X125.329 Y88.986 E11.73229
G1 X126.207 Y89.197 E11.76232
G1 X127.063 Y89.485 E11.79236
G1 X127.89 Y89.847 E11.82239
G1 X128.682 Y90.282 E11.85244
G1 X129.433 Y90.784 E11.88248
G1 X130.136 Y91.351 E11.91252
G1 X130.786 Y91.978 E11.94256
G1 X131.378 Y92.66 E11.9726
G1 X131.908 Y93.391 E12.00263
G1 X132.37 Y94.167 E12.03267
G1 X132.763 Y94.98 E12.0627
G1 X133.081 Y95.825 E12.09273
G1 X133.324 Y96.695 E12.12277
G1 X133.489 Y97.583 E12.15281
G1 X133.584 Y98.7 E12.1901
G1 X133.593 Y99.006 E12.20028
G1 X133.597 Y99.306 E12.21026
G1 X133.596 Y135.38 E13.41009
G1 X133.587 Y136.107 E13.43427
G1 X133.536 Y137.009 E13.46432
G1 X133.405 Y137.903 E13.49437
G1 X133.196 Y138.781 E13.52439
G1 X132.91 Y139.638 E13.55444
G1 X132.549 Y140.466 E13.58448
G1 X132.117 Y141.258 E13.61449
G1 X131.616 Y142.01 E13.64454
G1 X131.05 Y142.714 E13.67459
G1 X130.425 Y143.365 E13.7046
G1 X129.744 Y143.959 E13.73466
G1 X129.013 Y144.49 E13.76471
G1 X128.239 Y144.954 E13.79472
G1 X127.426 Y145.348 E13.82477
G1 X126.582 Y145.668 E13.85479
G1 X125.712 Y145.913 E13.88485
G1 X124.825 Y146.079 E13.91487
G1 X123.674 Y146.177 E13.95329
G1 X123.353 Y146.186 E13.96397
G1 X123.067 Y146.19 E13.97348
G1 X115.959 Y146.189 E14.2099
G1 X115.255 Y146.179 E14.23331
G1 X114.354 Y146.126 E14.26333
G1 X113.46 Y145.994 E14.29339
G1 X112.582 Y145.783 E14.32342
G1 X111.726 Y145.495 E14.35346
G1 X111.062 Y145.212 E14.37747
G1 X110.51 Y144.951 E14.39778
G1 X108.932 Y144.184 E14.45613
G1 X106.562 Y143.114 E14.54262
G1 X106.231 Y142.969 E14.55464
G1 X105.421 Y142.571 E14.58466
G1 X104.649 Y142.102 E14.6147
G1 X103.921 Y141.567 E14.64475
G1 X103.244 Y140.969 E14.67479
G1 X102.622 Y140.314 E14.70484
G1 X102.061 Y139.607 E14.73486
G1 X101.413 Y138.592 E14.77491
G1 X101.175 Y138.165 E14.79117
G1 X101.031 Y137.896 E14.80131
G1 X100.865 Y137.576 E14.81331
G1 X100.485 Y136.757 E14.84333
G1 X100.179 Y135.907 E14.87338
G1 X99.949 Y135.034 E14.90341
G1 X99.798 Y134.143 E14.93347
G1 X99.721 Y133.081 E14.96888
G1 X99.701 Y132.069 E15.00255
G1 X99.699 Y131.867 E15.00927
G1 X99.7 Y102.676 E15.98016
G1 X99.71 Y101.985 E16.00315
G1 X99.763 Y101.084 E16.03317
G1 X99.896 Y100.191 E16.0632
G1 X100.107 Y99.312 E16.09326
G1 X100.395 Y98.456 E16.1233
G1 X100.816 Y97.513 E16.15765
G1 X101.004 Y97.143 E16.17145
G1 X101.184 Y96.803 E16.18425
G1 X101.253 Y96.679 E16.18897
G1 X101.727 Y95.91 E16.21901
G1 X102.266 Y95.186 E16.24903
G1 X102.868 Y94.513 E16.27907
G1 F2700 E11.27907
;MESH:ShortSensorAttatchment.stl
G0 F6000 X109.359 Y101.718
G0 X110.319 Y102.226
G0 X110.671 Y132.669
G0 X113.88 Y132.859
G0 X115.769 Y135.216
G0 X122.797 Y135.39
;TYPE:WALL-INNER
G1 F2700 E16.27907
G1 F1200 X115.685 Y135.39 E16.51561
G1 X113.796 Y133.033 E16.61608
G1 X110.671 Y133.033 E16.72001
G1 X110.499 Y132.712 E16.73213
G1 X110.499 Y102.27 E17.74463
G1 X110.518 Y102.233 E17.74602
G1 X113.598 Y102.233 E17.84846
G1 X114.686 Y100.793 E17.90848
G1 X115.689 Y99.59 E17.96058
G1 X122.797 Y99.59 E18.19699
G1 X122.797 Y135.39 E19.38771
G0 F6000 X123.197 Y135.79
;TYPE:WALL-OUTER
G1 F1200 X115.493 Y135.79 E19.64394
G1 X113.604 Y133.433 E19.74441
G1 X110.431 Y133.433 E19.84994
G1 X110.099 Y132.813 E19.87333
G1 X110.099 Y102.17 E20.89252
G1 X110.278 Y101.833 E20.90521
G1 X113.399 Y101.833 E21.00902
G1 X114.372 Y100.546 E21.06268
G1 X115.502 Y99.19 E21.12139
G1 X123.197 Y99.19 E21.37733
G1 X123.197 Y135.79 E22.59465
G0 F6000 X122.927 Y135.52
G0 X122.687 Y135
G0 X122.407 Y135
;TYPE:SKIN
G1 F1200 X115.872 Y135 E22.812
G1 X113.983 Y132.643 E22.91247
G1 X110.904 Y132.643 E23.01487
G1 X110.889 Y132.614 E23.01596
G1 X110.889 Y102.623 E24.01346
G1 X113.793 Y102.623 E24.11005
G1 X114.998 Y101.029 E24.17651
G1 X115.872 Y99.98 E24.22193
G1 X122.407 Y99.98 E24.43928
G1 X122.407 Y135 E25.60405
G0 F6000 X122.687 Y135
G0 X115.769 Y135.216
G0 X113.717 Y133.197
G0 X111.552 Y132.923
G0 X111.552 Y132.482
G1 F1200 X111.048 Y131.978 E25.62776
G0 F6000 X111.048 Y131.412
G1 F1200 X112.118 Y132.482 E25.67809
G0 F6000 X112.683 Y132.482
G1 F1200 X111.048 Y130.847 E25.75499
G0 F6000 X111.048 Y130.281
G1 F1200 X113.249 Y132.482 E25.85852
G0 F6000 X113.815 Y132.482
G1 F1200 X111.048 Y129.715 E25.98867
G0 F6000 X111.048 Y129.15
G1 F1200 X116.736 Y134.838 E26.25622
G0 F6000 X116.171 Y134.838
G1 F1200 X115.049 Y133.717 E26.30897
G0 F6000 X114.705 Y133.991
G0 X115.769 Y135.216
G0 X117.302 Y135.28
G0 X117.302 Y134.838
G1 F1200 X111.048 Y128.584 E26.60314
G0 F6000 X111.048 Y128.018
G1 F1200 X117.868 Y134.838 E26.92393
G0 F6000 X118.434 Y134.838
G1 F1200 X111.048 Y127.453 E27.27132
G0 F6000 X111.048 Y126.887
G1 F1200 X118.999 Y134.838 E27.64531
G0 F6000 X119.565 Y134.838
G1 F1200 X111.048 Y126.321 E28.04593
G0 F6000 X111.048 Y125.756
G1 F1200 X120.131 Y134.838 E28.47314
G0 F6000 X120.696 Y134.838
G1 F1200 X111.048 Y125.19 E28.92695
G0 F6000 X111.048 Y124.624
G1 F1200 X121.262 Y134.838 E29.40739
G0 F6000 X121.828 Y134.838
G1 F1200 X111.048 Y124.059 E29.91442
G0 F6000 X111.048 Y123.493
G1 F1200 X122.246 Y134.691 E30.44114
G0 F6000 X122.246 Y134.126
G1 F1200 X111.048 Y122.927 E30.96788
G0 F6000 X111.048 Y122.362
G1 F1200 X122.246 Y133.56 E31.4946
G0 F6000 X122.246 Y132.994
G1 F1200 X111.048 Y121.796 E32.02132
G0 F6000 X111.048 Y121.23
G1 F1200 X122.246 Y132.429 E32.54807
G0 F6000 X122.246 Y131.863
G1 F1200 X111.048 Y120.664 E33.07481
G0 F6000 X111.048 Y120.099
G1 F1200 X122.246 Y131.297 E33.60153
G0 F6000 X122.246 Y130.732
G1 F1200 X111.048 Y119.533 E34.12827
G0 F6000 X111.048 Y118.967
G1 F1200 X122.246 Y130.166 E34.65501
G0 F6000 X122.246 Y129.6
G1 F1200 X111.048 Y118.402 E35.18173
G0 F6000 X111.048 Y117.836
G1 F1200 X122.246 Y129.034 E35.70845
G0 F6000 X122.246 Y128.469
G1 F1200 X111.048 Y117.27 E36.2352
G0 F6000 X111.048 Y116.705
G1 F1200 X122.246 Y127.903 E36.76192
G0 F6000 X122.246 Y127.337
G1 F1200 X111.048 Y116.139 E37.28864
G0 F6000 X111.048 Y115.573
G1 F1200 X122.246 Y126.772 E37.81538
G0 F6000 X122.246 Y126.206
G1 F1200 X111.048 Y115.008 E38.3421
G0 F6000 X111.048 Y114.442
G1 F1200 X122.246 Y125.64 E38.86882
G0 F6000 X122.246 Y125.075
G1 F1200 X111.048 Y113.876 E39.39556
G0 F6000 X111.048 Y113.311
G1 F1200 X122.246 Y124.509 E39.92228
G0 F6000 X122.246 Y123.943
G1 F1200 X111.048 Y112.745 E40.449
G0 F6000 X111.048 Y112.179
G1 F1200 X122.246 Y123.378 E40.97574
G0 F6000 X122.246 Y122.812
G1 F1200 X111.048 Y111.613 E41.50249
G0 F6000 X111.048 Y111.048
G1 F1200 X122.246 Y122.246 E42.02921
G0 F6000 X122.246 Y121.681
G1 F1200 X111.048 Y110.482 E42.55595
G0 F6000 X111.048 Y109.916
G1 F1200 X122.246 Y121.115 E43.08269
G0 F6000 X122.246 Y120.549
G1 F1200 X111.048 Y109.351 E43.60941
G0 F6000 X111.048 Y108.785
G1 F1200 X122.246 Y119.983 E44.13613
G0 F6000 X122.246 Y119.418
G1 F1200 X111.048 Y108.219 E44.66288
G0 F6000 X111.048 Y107.654
G1 F1200 X122.246 Y118.852 E45.18959
G0 F6000 X122.246 Y118.286
G1 F1200 X111.048 Y107.088 E45.71631
G0 F6000 X111.048 Y106.522
G1 F1200 X122.246 Y117.721 E46.24306
G0 F6000 X122.246 Y117.155
G1 F1200 X111.048 Y105.957 E46.76978
G0 F6000 X111.048 Y105.391
G1 F1200 X122.246 Y116.589 E47.2965
G0 F6000 X122.246 Y116.024
G1 F1200 X111.048 Y104.825 E47.82324
G0 F6000 X111.048 Y104.26
G1 F1200 X122.246 Y115.458 E48.34996
G0 F6000 X122.246 Y114.892
G1 F1200 X111.048 Y103.694 E48.87668
G0 F6000 X111.048 Y103.128
G1 F1200 X122.246 Y114.327 E49.40342
G0 F6000 X122.246 Y113.761
G1 F1200 X111.268 Y102.783 E49.91979
G0 F6000 X111.834 Y102.783
G1 F1200 X122.246 Y113.195 E50.40954
G0 F6000 X122.246 Y112.63
G1 F1200 X112.4 Y102.783 E50.87269
G0 F6000 X112.965 Y102.783
G1 F1200 X122.246 Y112.064 E51.30924
G0 F6000 X122.246 Y111.498
G1 F1200 X113.531 Y102.783 E51.71917
G0 F6000 X113.967 Y102.654
G1 F1200 X122.246 Y110.933 E52.10859
G0 F6000 X122.246 Y110.367
G1 F1200 X114.211 Y102.332 E52.48653
G0 F6000 X114.455 Y102.01
G1 F1200 X122.246 Y109.801 E52.85299
G0 F6000 X122.246 Y109.235
G1 F1200 X114.699 Y101.688 E53.20798
G0 F6000 X114.943 Y101.366
G1 F1200 X122.246 Y108.67 E53.55152
G0 F6000 X122.246 Y108.104
G1 F1200 X115.189 Y101.047 E53.88345
G0 F6000 X115.447 Y100.739
G1 F1200 X122.246 Y107.538 E54.20326
G0 F6000 X122.246 Y106.973
G1 F1200 X115.703 Y100.43 E54.51102
G0 F6000 X115.978 Y100.139
G1 F1200 X122.246 Y106.407 E54.80585
G0 F6000 X122.246 Y105.841
G1 F1200 X116.544 Y100.139 E55.07405
G0 F6000 X117.11 Y100.139
G1 F1200 X122.246 Y105.276 E55.31566
G0 F6000 X122.246 Y104.71
G1 F1200 X117.676 Y100.139 E55.53064
G0 F6000 X118.241 Y100.139
G1 F1200 X122.246 Y104.144 E55.71902
G0 F6000 X122.246 Y103.579
G1 F1200 X118.807 Y100.139 E55.88081
G0 F6000 X119.373 Y100.139
G1 F1200 X122.246 Y103.013 E56.01597
G0 F6000 X122.246 Y102.447
G1 F1200 X119.938 Y100.139 E56.12453
G0 F6000 X120.504 Y100.139
G1 F1200 X122.246 Y101.882 E56.20649
G0 F6000 X122.246 Y101.316
G1 F1200 X121.07 Y100.139 E56.26183
G0 F6000 X121.635 Y100.139
