;FLAVOR:Marlin
;TIME:8871
;Filament used: 6.25825m
;Layer height: 0.2
;MINX:66.676
;MINY:46.648
;MINZ:0.2
;MAXX:168.324
;MAXY:203.811
;MAXZ:15.4
;Generated with Cura_SteamEngine 4.8.0
M140 S50
M105
M190 S50
M104 S220
M105
M109 S220
M82 ;absolute extrusion mode
; Ender 3 Custom Start G-code
G92 E0 ; Reset Extruder
G28 ; Home all axes
G1 Z2.0 F3000 ; Move Z Axis up little to prevent scratching of Heat Bed
G1 X0.1 Y20 Z0.3 F5000.0 ; Move to start position
G1 X0.1 Y200.0 Z0.3 F1500.0 E15 ; Draw the first line
G1 X0.4 Y200.0 Z0.3 F5000.0 ; Move to side a little
G1 X0.4 Y20 Z0.3 F1500.0 E30 ; Draw the second line
G92 E0 ; Reset Extruder
G1 Z2.0 F3000 ; Move Z Axis up little to prevent scratching of Heat Bed
G1 X5 Y20 Z0.3 F5000.0 ; Move over to prevent blob squish
G92 E0
G92 E0
G1 F2700 E-5
;LAYER_COUNT:77
;LAYER:0
M107
G0 F6000 X68.672 Y51.351 Z0.2
;TYPE:SKIRT
G1 F2700 E0
G1 F1200 X69.242 Y50.606 E0.0312
G1 X69.874 Y49.912 E0.06242
G1 X70.562 Y49.275 E0.0936
G1 X71.302 Y48.699 E0.12479
G1 X72.088 Y48.187 E0.15599
G1 X72.915 Y47.745 E0.18718
G1 X73.777 Y47.375 E0.21838
G1 X74.667 Y47.079 E0.24958
G1 X75.579 Y46.861 E0.28077
G1 X76.506 Y46.72 E0.31195
G1 X77.377 Y46.661 E0.34099
G1 X77.698 Y46.652 E0.35167
G1 X78.006 Y46.648 E0.36191
G1 X155.972 Y46.648 E2.95507
G1 X156.828 Y46.659 E2.98355
G1 X157.764 Y46.713 E3.01473
G1 X158.692 Y46.845 E3.04591
G1 X159.606 Y47.057 E3.07711
G1 X160.498 Y47.346 E3.1083
G1 X161.363 Y47.709 E3.1395
G1 X162.193 Y48.145 E3.17068
G1 X162.984 Y48.65 E3.2019
G1 X163.728 Y49.221 E3.23309
G1 X164.421 Y49.853 E3.26428
G1 X165.058 Y50.541 E3.29547
G1 X165.633 Y51.282 E3.32666
G1 X166.144 Y52.068 E3.35785
G1 X166.586 Y52.896 E3.38906
G1 X166.955 Y53.758 E3.42025
G1 X167.25 Y54.648 E3.45144
G1 X167.468 Y55.56 E3.48262
G1 X167.608 Y56.488 E3.51384
G1 X167.666 Y57.349 E3.54254
G1 X167.675 Y57.669 E3.55319
G1 X167.679 Y57.978 E3.56347
G1 X167.678 Y64.095 E3.76692
G1 X167.666 Y64.848 E3.79197
G1 X167.613 Y65.76 E3.82235
G1 X167.489 Y67.013 E3.86423
G1 X167.266 Y69.635 E3.95175
G1 X167.125 Y72.151 E4.03557
G1 X167.054 Y74.672 E4.11945
G1 X167.056 Y77.197 E4.20343
G1 X167.128 Y79.697 E4.28661
G1 X167.269 Y82.199 E4.36996
G1 X167.485 Y84.715 E4.45395
G1 X167.766 Y87.183 E4.53657
G1 X168.003 Y88.771 E4.58997
G1 X168.035 Y89.077 E4.6002
G1 X168.203 Y90.247 E4.63952
G1 X168.309 Y91.477 E4.68058
G1 X168.319 Y91.808 E4.69159
G1 X168.324 Y92.14 E4.70264
G1 X168.323 Y192.211 E8.03101
G1 X168.314 Y192.938 E8.05519
G1 X168.263 Y193.875 E8.08641
G1 X168.131 Y194.803 E8.11758
G1 X167.922 Y195.717 E8.14877
G1 X167.635 Y196.61 E8.17996
G1 X167.273 Y197.476 E8.21118
G1 X166.839 Y198.307 E8.24236
G1 X166.335 Y199.098 E8.27356
G1 X165.766 Y199.843 E8.30474
G1 X165.135 Y200.538 E8.33596
G1 X164.448 Y201.176 E8.36714
G1 X163.709 Y201.753 E8.39833
G1 X162.923 Y202.265 E8.42953
G1 X162.097 Y202.708 E8.4607
G1 X161.235 Y203.08 E8.49193
G1 X160.346 Y203.376 E8.52309
G1 X159.434 Y203.596 E8.5543
G1 X158.507 Y203.737 E8.58548
G1 X157.623 Y203.798 E8.61495
G1 X157.302 Y203.807 E8.62563
G1 X156.994 Y203.811 E8.63588
G1 X79.889 Y203.81 E11.2004
G1 X79.191 Y203.801 E11.22362
G1 X78.255 Y203.749 E11.2548
G1 X77.326 Y203.617 E11.28601
G1 X76.412 Y203.407 E11.3172
G1 X75.519 Y203.12 E11.3484
G1 X74.654 Y202.757 E11.3796
G1 X73.823 Y202.323 E11.41078
G1 X73.032 Y201.819 E11.44198
G1 X72.287 Y201.249 E11.47317
G1 X71.593 Y200.618 E11.50437
G1 X70.956 Y199.931 E11.53553
G1 X70.379 Y199.191 E11.56674
G1 X69.867 Y198.405 E11.59794
G1 X69.424 Y197.578 E11.62915
G1 X69.053 Y196.717 E11.66033
G1 X68.757 Y195.827 E11.69152
G1 X68.538 Y194.915 E11.72272
G1 X68.397 Y193.988 E11.75391
G1 X68.337 Y193.099 E11.78354
G1 X68.328 Y192.766 E11.79462
G1 X68.324 Y192.469 E11.8045
G1 X68.325 Y92.361 E15.13411
G1 X68.335 Y91.654 E15.15762
G1 X68.362 Y91.032 E15.17833
G1 X68.393 Y90.592 E15.193
G1 X68.539 Y88.025 E15.27852
G1 X68.611 Y85.467 E15.36363
G1 X68.611 Y82.979 E15.44638
G1 X68.539 Y80.421 E15.5315
G1 X68.398 Y77.935 E15.61431
G1 X68.186 Y75.446 E15.6974
G1 X67.9 Y72.927 E15.78172
G1 X67.545 Y70.428 E15.86567
G1 X67.112 Y67.904 E15.95085
G1 X66.886 Y66.736 E15.99041
G1 X66.747 Y65.809 E16.02159
G1 X66.691 Y64.979 E16.04926
G1 X66.681 Y64.647 E16.06031
G1 X66.676 Y64.316 E16.07132
G1 X66.677 Y58.173 E16.27563
G1 X66.686 Y57.508 E16.29775
G1 X66.739 Y56.572 E16.32894
G1 X66.871 Y55.643 E16.36014
G1 X67.082 Y54.729 E16.39134
G1 X67.37 Y53.837 E16.42252
G1 X67.733 Y52.972 E16.45372
G1 X68.168 Y52.141 E16.48492
G1 X68.672 Y51.351 E16.51608
G0 F6000 X69.068 Y51.483
G1 F1200 X69.637 Y50.759 E16.54671
G1 X70.265 Y50.087 E16.5773
G1 X70.95 Y49.471 E16.60794
G1 X71.686 Y48.918 E16.63856
G1 X72.467 Y48.43 E16.66919
G1 X73.287 Y48.012 E16.69981
G1 X74.141 Y47.667 E16.73044
G1 X75.021 Y47.397 E16.76106
G1 X75.921 Y47.205 E16.79166
G1 X76.835 Y47.091 E16.8223
G1 X77.388 Y47.061 E16.84072
G1 X77.709 Y47.052 E16.8514
G1 X78.006 Y47.048 E16.86128
G1 X155.972 Y47.048 E19.45444
G1 X156.822 Y47.059 E19.48271
G1 X157.741 Y47.112 E19.51333
G1 X158.652 Y47.245 E19.54395
G1 X159.548 Y47.456 E19.57457
G1 X160.422 Y47.744 E19.60517
G1 X161.269 Y48.107 E19.63582
G1 X162.08 Y48.542 E19.66643
G1 X162.85 Y49.046 E19.69704
G1 X163.574 Y49.615 E19.72767
G1 X164.246 Y50.245 E19.7583
G1 X164.861 Y50.93 E19.78892
G1 X165.414 Y51.666 E19.81954
G1 X165.901 Y52.447 E19.85015
G1 X166.318 Y53.268 E19.88078
G1 X166.663 Y54.122 E19.91142
G1 X166.932 Y55.002 E19.94202
G1 X167.124 Y55.903 E19.97266
G1 X167.237 Y56.816 E20.00326
G1 X167.266 Y57.36 E20.02138
G1 X167.275 Y57.68 E20.03203
G1 X167.279 Y57.978 E20.04194
G1 X167.278 Y64.089 E20.24519
G1 X167.266 Y64.842 E20.27024
G1 X167.215 Y65.72 E20.29949
G1 X167.087 Y67.007 E20.34251
G1 X166.866 Y69.613 E20.4295
G1 X166.725 Y72.118 E20.51294
G1 X166.654 Y74.661 E20.59756
G1 X166.656 Y77.174 E20.68114
G1 X166.729 Y79.729 E20.76615
G1 X166.872 Y82.256 E20.85034
G1 X167.083 Y84.723 E20.93269
G1 X167.373 Y87.259 E21.01759
G1 X167.607 Y88.83 E21.07041
G1 X167.638 Y89.127 E21.08035
G1 X167.807 Y90.304 E21.1199
G1 X167.909 Y91.489 E21.15945
G1 X167.919 Y91.82 E21.17047
G1 X167.924 Y92.14 E21.18111
G1 X167.923 Y192.206 E24.50932
G1 X167.914 Y192.933 E24.5335
G1 X167.863 Y193.852 E24.56412
G1 X167.732 Y194.764 E24.59476
G1 X167.522 Y195.66 E24.62537
G1 X167.236 Y196.535 E24.65599
G1 X166.875 Y197.382 E24.68661
G1 X166.441 Y198.194 E24.71723
G1 X165.939 Y198.966 E24.74786
G1 X165.371 Y199.691 E24.77849
G1 X164.743 Y200.364 E24.80911
G1 X164.059 Y200.98 E24.83973
G1 X163.324 Y201.534 E24.87034
G1 X162.544 Y202.023 E24.90096
G1 X161.724 Y202.442 E24.93159
G1 X160.871 Y202.788 E24.9622
G1 X159.991 Y203.059 E24.99283
G1 X159.091 Y203.252 E25.02344
G1 X158.177 Y203.367 E25.05408
G1 X157.612 Y203.398 E25.0729
G1 X157.291 Y203.407 E25.08358
G1 X156.994 Y203.411 E25.09346
G1 X79.894 Y203.41 E27.65782
G1 X79.196 Y203.401 E27.68104
G1 X78.277 Y203.349 E27.71165
G1 X77.366 Y203.218 E27.74226
G1 X76.47 Y203.008 E27.77287
G1 X75.595 Y202.721 E27.8035
G1 X74.748 Y202.359 E27.83414
G1 X73.936 Y201.925 E27.86476
G1 X73.165 Y201.423 E27.89536
G1 X72.44 Y200.855 E27.92599
G1 X71.767 Y200.226 E27.95663
G1 X71.152 Y199.542 E27.98722
G1 X70.598 Y198.807 E28.01784
G1 X70.11 Y198.026 E28.04847
G1 X69.691 Y197.206 E28.07909
G1 X69.345 Y196.353 E28.10971
G1 X69.075 Y195.473 E28.14033
G1 X68.882 Y194.572 E28.17097
G1 X68.768 Y193.659 E28.20157
G1 X68.737 Y193.088 E28.22059
G1 X68.728 Y192.755 E28.23167
G1 X68.724 Y192.469 E28.24119
G1 X68.725 Y92.367 E31.57059
G1 X68.735 Y91.66 E31.59411
G1 X68.761 Y91.061 E31.61405
G1 X68.79 Y90.649 E31.62779
G1 X68.939 Y88.023 E31.71527
G1 X69.011 Y85.478 E31.79995
G1 X69.011 Y82.968 E31.88343
G1 X68.939 Y80.421 E31.96818
G1 X68.797 Y77.915 E32.05167
G1 X68.58 Y75.368 E32.13669
G1 X68.3 Y72.897 E32.2194
G1 X67.937 Y70.342 E32.30523
G1 X67.509 Y67.849 E32.38936
G1 X67.279 Y66.66 E32.42964
G1 X67.143 Y65.75 E32.46024
G1 X67.091 Y64.967 E32.48634
G1 X67.081 Y64.635 E32.49739
G1 X67.076 Y64.316 E32.508
G1 X67.077 Y58.179 E32.71212
G1 X67.086 Y57.514 E32.73424
G1 X67.138 Y56.594 E32.76489
G1 X67.27 Y55.683 E32.7955
G1 X67.481 Y54.787 E32.82612
G1 X67.768 Y53.912 E32.85675
G1 X68.131 Y53.066 E32.88737
G1 X68.565 Y52.254 E32.91799
G1 X69.068 Y51.483 E32.94861
G0 F6000 X69.464 Y51.619
G1 F1200 X70.031 Y50.915 E32.97867
G1 X70.657 Y50.265 E33.00869
G1 X71.338 Y49.672 E33.03872
G1 X72.07 Y49.142 E33.06878
G1 X72.845 Y48.679 E33.09881
G1 X73.658 Y48.286 E33.12884
G1 X74.503 Y47.966 E33.15889
G1 X75.372 Y47.723 E33.18891
G1 X76.26 Y47.557 E33.21895
G1 X77.399 Y47.461 E33.25697
G1 X77.72 Y47.452 E33.26765
G1 X78.006 Y47.448 E33.27716
G1 X155.972 Y47.448 E35.87032
G1 X156.816 Y47.459 E35.8984
G1 X157.718 Y47.512 E35.92845
G1 X158.611 Y47.644 E35.95847
G1 X159.489 Y47.855 E35.98851
G1 X160.345 Y48.143 E36.01855
G1 X161.172 Y48.505 E36.04857
G1 X161.964 Y48.94 E36.07863
G1 X162.715 Y49.442 E36.10867
G1 X163.418 Y50.009 E36.13871
G1 X164.068 Y50.636 E36.16875
G1 X164.66 Y51.318 E36.19879
G1 X165.19 Y52.049 E36.22882
G1 X165.652 Y52.825 E36.25885
G1 X166.045 Y53.638 E36.28889
G1 X166.363 Y54.483 E36.31892
G1 X166.606 Y55.353 E36.34896
G1 X166.771 Y56.241 E36.379
G1 X166.866 Y57.371 E36.41672
G1 X166.875 Y57.691 E36.42737
G1 X166.879 Y57.978 E36.43691
G1 X166.878 Y64.083 E36.63997
G1 X166.866 Y64.836 E36.66501
G1 X166.817 Y65.681 E36.69317
G1 X166.695 Y66.905 E36.73408
G1 X166.467 Y69.592 E36.82377
G1 X166.325 Y72.119 E36.90795
G1 X166.254 Y74.65 E36.99216
G1 X166.256 Y77.185 E37.07648
G1 X166.329 Y79.729 E37.16113
G1 X166.473 Y82.277 E37.24601
G1 X166.689 Y84.801 E37.33027
G1 X166.972 Y87.278 E37.41319
G1 X167.212 Y88.889 E37.46736
G1 X167.244 Y89.194 E37.47756
G1 X167.411 Y90.361 E37.51677
G1 X167.509 Y91.501 E37.55483
G1 X167.519 Y91.832 E37.56584
G1 X167.524 Y92.14 E37.57609
G1 X167.523 Y192.201 E40.90413
G1 X167.514 Y192.928 E40.92831
G1 X167.463 Y193.83 E40.95836
G1 X167.332 Y194.724 E40.98841
G1 X167.123 Y195.602 E41.01843
G1 X166.837 Y196.459 E41.04848
G1 X166.476 Y197.287 E41.07852
G1 X166.044 Y198.079 E41.10853
G1 X165.543 Y198.831 E41.13858
G1 X164.977 Y199.535 E41.16863
G1 X164.352 Y200.186 E41.19864
G1 X163.671 Y200.78 E41.2287
G1 X162.94 Y201.311 E41.25875
G1 X162.166 Y201.775 E41.28876
G1 X161.353 Y202.169 E41.31881
G1 X160.509 Y202.489 E41.34883
G1 X159.639 Y202.734 E41.37889
G1 X158.752 Y202.9 E41.40891
G1 X157.601 Y202.998 E41.44733
G1 X157.28 Y203.007 E41.45801
G1 X156.994 Y203.011 E41.46752
G1 X79.899 Y203.01 E44.03171
G1 X79.201 Y203.001 E44.05493
G1 X78.3 Y202.95 E44.08495
G1 X77.406 Y202.818 E44.115
G1 X76.528 Y202.609 E44.14502
G1 X75.671 Y202.322 E44.17508
G1 X74.844 Y201.961 E44.20509
G1 X74.051 Y201.528 E44.23515
G1 X73.3 Y201.027 E44.26517
G1 X72.596 Y200.461 E44.29522
G1 X71.945 Y199.835 E44.32525
G1 X71.352 Y199.154 E44.35529
G1 X70.822 Y198.423 E44.38532
G1 X70.358 Y197.648 E44.41536
G1 X69.964 Y196.835 E44.44541
G1 X69.644 Y195.991 E44.47543
G1 X69.4 Y195.121 E44.50549
G1 X69.234 Y194.233 E44.53553
G1 X69.137 Y193.078 E44.57408
G1 X69.128 Y192.745 E44.58516
G1 X69.124 Y192.469 E44.59434
G1 X69.125 Y92.373 E47.92355
G1 X69.135 Y91.666 E47.94707
G1 X69.16 Y91.089 E47.96628
G1 X69.188 Y90.69 E47.97958
G1 X69.339 Y88.023 E48.06843
G1 X69.411 Y85.489 E48.15274
G1 X69.411 Y82.956 E48.23699
G1 X69.339 Y80.422 E48.32131
G1 X69.194 Y77.859 E48.40669
G1 X68.981 Y75.36 E48.49011
G1 X68.694 Y72.833 E48.57469
G1 X68.332 Y70.284 E48.66033
G1 X67.906 Y67.802 E48.74408
G1 X67.671 Y66.584 E48.78534
G1 X67.539 Y65.691 E48.81537
G1 X67.491 Y64.955 E48.8399
G1 X67.481 Y64.623 E48.85095
G1 X67.476 Y64.316 E48.86116
G1 X67.477 Y58.184 E49.06511
G1 X67.486 Y57.519 E49.08723
G1 X67.538 Y56.617 E49.11728
G1 X67.67 Y55.724 E49.1473
G1 X67.88 Y54.846 E49.17733
G1 X68.167 Y53.989 E49.20739
G1 X68.529 Y53.162 E49.23741
G1 X68.962 Y52.37 E49.26744
G1 X69.464 Y51.619 E49.29748
G1 F2700 E44.29748
;MESH:JOE-device 2 thin control box.stl
G0 F6000 X86.034 Y96.776
G0 X85.579 Y95.376
G0 X86.89 Y95.713
G0 X87.434 Y95.99
G0 X87.865 Y96.422
G0 X88.142 Y96.964
G0 X88.238 Y97.566
G0 X88.142 Y98.168
G0 X87.893 Y98.655
G0 X86.942 Y99.573
;TYPE:WALL-INNER
G1 F2700 E49.29748
G1 F1200 X87.53 Y99.274 E49.31942
G1 X87.997 Y98.806 E49.34141
G1 X88.296 Y98.218 E49.36335
G1 X88.4 Y97.566 E49.38531
G1 X88.296 Y96.914 E49.40727
G1 X87.997 Y96.326 E49.42921
G1 X87.53 Y95.858 E49.4512
G1 X86.94 Y95.559 E49.4732
G1 X86.289 Y95.457 E49.49512
G1 X85.638 Y95.559 E49.51703
G1 X85.05 Y95.858 E49.53897
G1 X84.584 Y96.326 E49.56094
G1 X84.282 Y96.914 E49.58293
G1 X84.18 Y97.566 E49.60488
G1 X84.282 Y98.218 E49.62682
G1 X84.584 Y98.806 E49.64881
G1 X85.05 Y99.273 E49.67075
G1 X85.637 Y99.573 E49.69268
G1 X86.289 Y99.677 E49.71464
G1 X86.942 Y99.573 E49.73663
G0 F6000 X86.817 Y99.188
;TYPE:WALL-OUTER
G1 F1200 X87.292 Y98.946 E49.75436
G1 X87.669 Y98.568 E49.77212
G1 X87.911 Y98.093 E49.78985
G1 X87.995 Y97.566 E49.8076
G1 X87.911 Y97.039 E49.82535
G1 X87.669 Y96.564 E49.84308
G1 X87.292 Y96.186 E49.86083
G1 X86.816 Y95.944 E49.8786
G1 X86.289 Y95.862 E49.89633
G1 X85.763 Y95.944 E49.91404
G1 X85.288 Y96.186 E49.93177
G1 X84.911 Y96.564 E49.94953
G1 X84.667 Y97.039 E49.96729
G1 X84.585 Y97.566 E49.98503
G1 X84.667 Y98.093 E50.00277
G1 X84.911 Y98.568 E50.02053
G1 X85.288 Y98.946 E50.03828
G1 X85.762 Y99.188 E50.05599
G1 X86.289 Y99.272 E50.07373
G1 X86.817 Y99.188 E50.09152
G0 F6000 X86.953 Y99.606
G1 F2700 E45.09152
G0 F6000 X88.153 Y98.92
G0 X86.961 Y98.054
G0 X149.618 Y98.055
G0 X148.426 Y98.92
G0 X149.638 Y99.573
;TYPE:WALL-INNER
G1 F2700 E50.09152
G1 F1200 X150.289 Y99.677 E50.11344
G1 X150.943 Y99.573 E50.13547
G1 X151.531 Y99.274 E50.15741
G1 X151.998 Y98.805 E50.17942
G1 X152.296 Y98.217 E50.20135
G1 X152.4 Y97.566 E50.22327
G1 X152.296 Y96.915 E50.2452
G1 X151.998 Y96.327 E50.26713
G1 X151.531 Y95.858 E50.28914
G1 X150.941 Y95.559 E50.31114
G1 X150.289 Y95.457 E50.33309
G1 X149.64 Y95.559 E50.35494
G1 X149.049 Y95.858 E50.37697
G1 X148.582 Y96.326 E50.39896
G1 X148.282 Y96.914 E50.42091
G1 X148.18 Y97.566 E50.44286
G1 X148.282 Y98.218 E50.46481
G1 X148.582 Y98.806 E50.48677
G1 X149.049 Y99.274 E50.50876
G1 X149.638 Y99.573 E50.53073
G0 F6000 X149.763 Y99.188
;TYPE:WALL-OUTER
G1 F1200 X150.289 Y99.272 E50.54844
G1 X150.818 Y99.188 E50.56626
G1 X151.293 Y98.946 E50.58399
G1 X151.67 Y98.568 E50.60175
G1 X151.911 Y98.092 E50.61949
G1 X151.995 Y97.566 E50.63721
G1 X151.911 Y97.04 E50.65493
G1 X151.67 Y96.564 E50.67267
G1 X151.293 Y96.186 E50.69043
G1 X150.817 Y95.944 E50.70819
G1 X150.289 Y95.862 E50.72596
G1 X149.764 Y95.944 E50.74363
G1 X149.287 Y96.186 E50.76142
G1 X148.91 Y96.564 E50.77918
G1 X148.667 Y97.039 E50.79693
G1 X148.585 Y97.566 E50.81466
G1 X148.667 Y98.093 E50.8324
G1 X148.91 Y98.568 E50.85015
G1 X149.287 Y98.946 E50.86791
G1 X149.763 Y99.188 E50.88567
G0 F6000 X149.627 Y99.606
G1 F2700 E45.88567
G0 F6000 X150.289 Y99.87
G0 X150.29 Y98.396
G0 X150.289 Y183.736
G0 X150.289 Y182.264
G0 X149.145 Y182.992
G0 X148.714 Y183.423
G0 X148.436 Y183.965
G0 X148.343 Y184.566
G0 X148.426 Y185.107
G0 X149.049 Y186.275
;TYPE:WALL-INNER
G1 F2700 E50.88567
G1 F1200 X149.638 Y186.572 E50.90761
G1 X150.288 Y186.678 E50.92951
G1 X150.943 Y186.573 E50.95157
G1 X151.531 Y186.275 E50.9735
G1 X151.998 Y185.806 E50.99551
G1 X152.296 Y185.218 E51.01744
G1 X152.4 Y184.566 E51.0394
G1 X152.296 Y183.916 E51.06129
G1 X151.998 Y183.327 E51.08325
G1 X151.532 Y182.861 E51.10517
G1 X150.943 Y182.559 E51.12718
G1 X150.289 Y182.457 E51.1492
G1 X149.638 Y182.559 E51.17111
G1 X149.049 Y182.861 E51.19313
G1 X148.583 Y183.327 E51.21505
G1 X148.282 Y183.915 E51.23702
G1 X148.18 Y184.566 E51.25893
G1 X148.282 Y185.219 E51.28092
G1 X148.582 Y185.807 E51.30287
G1 X149.049 Y186.275 E51.32486
G0 F6000 X149.287 Y185.947
;TYPE:WALL-OUTER
G1 F1200 X149.763 Y186.187 E51.34259
G1 X150.289 Y186.273 E51.36032
G1 X150.818 Y186.188 E51.37814
G1 X151.293 Y185.947 E51.39585
G1 X151.67 Y185.569 E51.41361
G1 X151.911 Y185.093 E51.43136
G1 X151.995 Y184.566 E51.44911
G1 X151.911 Y184.041 E51.46679
G1 X151.67 Y183.565 E51.48453
G1 X151.293 Y183.188 E51.50227
G1 X150.818 Y182.944 E51.52003
